(Skunk)
(T1 D=0.5 CR=0. TAPER=45deg - ZMIN=0. - chamfer mill)
G90

(Trace1)
S5000 M3
G90
G0 X0.1256 Y-0.2448
G1 X0.1384 Y-0.2334 F15
X0.1502 Y-0.2224
X0.1612 Y-0.2116
X0.1714 Y-0.2012
X0.1808 Y-0.191
X0.1894 Y-0.1812
X0.2044 Y-0.1622
X0.218 Y-0.1438
X0.2228 Y-0.1374
X0.2266 Y-0.1324
X0.2294 Y-0.1286
X0.2314 Y-0.126
X0.233 Y-0.1244
X0.2338 Y-0.1234
X0.236 Y-0.1212
X0.2354 Y-0.1404
X0.2422 Y-0.1298
X0.2518 Y-0.1142
X0.2604 Y-0.099
X0.2682 Y-0.0834
X0.2756 Y-0.067
X0.2828 Y-0.0488
X0.2902 Y-0.0286
X0.294 Y-0.0174
X0.298 Y-0.0052
X0.302 Y0.0076
X0.3064 Y0.0216
X0.3098 Y0.0322
X0.3124 Y0.0412
X0.3144 Y0.0472
X0.315 Y0.0488
X0.3152 Y0.0494
X0.3154 Y0.049
X0.3156 Y0.047
X0.3162 Y0.0406
X0.3178 Y0.0246
X0.3184 Y0.018
X0.3202 Y0.0234
X0.3224 Y0.0326
X0.324 Y0.0436
X0.325 Y0.0564
X0.3254 Y0.071
X0.3248 Y0.089
X0.3234 Y0.1082
X0.3208 Y0.1286
X0.317 Y0.1506
X0.312 Y0.1748
X0.3058 Y0.2014
X0.2982 Y0.2304
X0.294 Y0.246
X0.286 Y0.2742
X0.2834 Y0.2836
X0.2816 Y0.29
X0.281 Y0.2918
Y0.2924
X0.2818 Y0.2914
X0.2838 Y0.2886
X0.2866 Y0.2846
X0.2902 Y0.2796
X0.2936 Y0.275
X0.2964 Y0.2712
X0.2984 Y0.269
X0.299 Y0.2688
Y0.27
X0.2984 Y0.2726
X0.2978 Y0.2764
X0.2956 Y0.2876
X0.2942 Y0.2944
X0.288 Y0.3256
X0.2852 Y0.3404
X0.2828 Y0.354
X0.2806 Y0.3664
X0.2786 Y0.3778
X0.2768 Y0.3884
X0.2742 Y0.4076
X0.2718 Y0.4294
X0.271 Y0.4396
X0.2702 Y0.4488
X0.27 Y0.4564
Y0.4624
X0.2702 Y0.466
X0.2708 Y0.467
X0.2718 Y0.466
X0.2736 Y0.4636
X0.2788 Y0.456
X0.2816 Y0.452
X0.284 Y0.4488
X0.2856 Y0.4466
X0.2862 Y0.4458
X0.286 Y0.4468
X0.285 Y0.4496
X0.2838 Y0.4534
X0.2824 Y0.4582
X0.2774 Y0.4744
X0.2732 Y0.491
X0.2698 Y0.5076
X0.2674 Y0.524
X0.2666 Y0.5302
X0.2662 Y0.5374
X0.2658 Y0.553
X0.2662 Y0.5678
X0.2666 Y0.5744
X0.2674 Y0.58
X0.271 Y0.5974
X0.2766 Y0.613
X0.284 Y0.6272
X0.2934 Y0.6394
X0.3046 Y0.6502
X0.3176 Y0.659
X0.3324 Y0.6662
X0.3488 Y0.6716
X0.353 Y0.6726
X0.356 Y0.6732
X0.358 Y0.6736
X0.3588 Y0.6734
Y0.673
X0.3578 Y0.672
X0.3558 Y0.6708
X0.3528 Y0.6692
X0.3406 Y0.662
X0.3296 Y0.6546
X0.3204 Y0.647
X0.3134 Y0.64
X0.3064 Y0.6302
X0.304 Y0.626
X0.3032 Y0.6234
X0.3038 Y0.622
X0.305 Y0.6196
X0.3094 Y0.6132
X0.3214 Y0.5946
X0.3268 Y0.584
X0.3318 Y0.5726
X0.3366 Y0.5598
X0.3414 Y0.5456
X0.346 Y0.5298
X0.3506 Y0.5118
X0.353 Y0.5022
X0.3532 Y0.5142
X0.3536 Y0.5234
X0.3538 Y0.5268
X0.3542 Y0.5288
X0.3546 Y0.53
X0.3552 Y0.5304
X0.356 Y0.5294
X0.3576 Y0.527
X0.3596 Y0.5244
X0.3626 Y0.5208
X0.371 Y0.5116
X0.3796 Y0.5014
X0.3832 Y0.4968
X0.3856 Y0.493
X0.3874 Y0.4896
X0.3894 Y0.4852
X0.394 Y0.4742
X0.399 Y0.4614
X0.4038 Y0.4476
X0.4078 Y0.4356
X0.4092 Y0.443
X0.4102 Y0.4492
X0.411 Y0.4536
X0.4118 Y0.456
X0.4124 Y0.457
X0.414 Y0.4562
X0.4172 Y0.4542
X0.4212 Y0.451
X0.426 Y0.4472
X0.436 Y0.4388
X0.4404 Y0.4348
X0.4438 Y0.4314
X0.4538 Y0.4194
X0.4618 Y0.4066
X0.4674 Y0.3932
X0.4708 Y0.3788
X0.4716 Y0.3722
X0.472 Y0.365
X0.4714 Y0.3486
X0.4694 Y0.3312
X0.4658 Y0.3146
X0.4646 Y0.3092
X0.4644 Y0.3076
X0.4646 Y0.307
X0.4668 Y0.308
X0.4706 Y0.3106
X0.4796 Y0.3184
X0.4892 Y0.3288
X0.4942 Y0.3354
X0.4996 Y0.343
X0.5054 Y0.3522
X0.512 Y0.3628
X0.5194 Y0.3756
X0.5278 Y0.3904
X0.5336 Y0.4008
X0.5388 Y0.41
X0.5434 Y0.418
X0.5472 Y0.4244
X0.5504 Y0.4296
X0.5526 Y0.4332
X0.5542 Y0.4354
X0.555 Y0.4358
Y0.435
Y0.4328
X0.5542 Y0.4262
X0.5538 Y0.4218
X0.5536 Y0.4186
X0.5534 Y0.4166
X0.5536 Y0.416
X0.5542 Y0.4164
X0.555 Y0.4182
X0.5564 Y0.4212
X0.558 Y0.4252
X0.5602 Y0.4302
X0.5628 Y0.4362
X0.5662 Y0.4434
X0.5702 Y0.4522
X0.5752 Y0.4628
X0.5814 Y0.4756
X0.5886 Y0.4906
X0.6038 Y0.5222
X0.6096 Y0.5344
X0.612 Y0.5396
X0.6138 Y0.544
X0.6154 Y0.5474
X0.6186 Y0.5554
X0.6194 Y0.5574
X0.62 Y0.5584
X0.6202 Y0.558
X0.6204 Y0.557
X0.6212 Y0.5528
X0.622 Y0.5462
X0.623 Y0.5382
X0.624 Y0.5302
X0.6248 Y0.5236
X0.6254 Y0.519
X0.6258 Y0.5174
X0.6262 Y0.5186
X0.6274 Y0.5216
X0.6288 Y0.5262
X0.6308 Y0.5318
X0.6366 Y0.5518
X0.642 Y0.5738
X0.6466 Y0.5972
X0.6504 Y0.622
X0.6514 Y0.6314
X0.6522 Y0.6422
X0.6528 Y0.666
Y0.6774
X0.6524 Y0.6878
X0.6518 Y0.6964
X0.651 Y0.7022
X0.6498 Y0.7076
X0.6496 Y0.7092
Y0.71
X0.6502 Y0.7094
X0.6512 Y0.708
X0.6548 Y0.7032
X0.658 Y0.6986
X0.6592 Y0.6976
X0.6594
Y0.6992
X0.659 Y0.7026
X0.658 Y0.7128
X0.6548 Y0.733
X0.6504 Y0.7534
X0.6444 Y0.7736
X0.6374 Y0.7936
X0.629 Y0.8134
X0.6194 Y0.8328
X0.6086 Y0.8516
X0.5966 Y0.8696
X0.5864 Y0.8836
X0.5756 Y0.8968
X0.5644 Y0.9092
X0.5526 Y0.921
X0.5404 Y0.932
X0.5276 Y0.9422
X0.5144 Y0.9518
X0.501 Y0.9606
X0.487 Y0.9686
X0.4726 Y0.9758
X0.4578 Y0.9824
X0.4428 Y0.988
X0.4274 Y0.9928
X0.4116 Y0.9968
X0.3956 Y1
X0.3792 Y1.0022
X0.3732 Y1.0028
X0.3652 Y1.0032
X0.3558 Y1.0036
X0.3456
X0.3252
X0.3162 Y1.0034
X0.309 Y1.0032
X0.3032 Y1.0026
X0.2962 Y1.002
X0.28 Y1.0002
X0.264 Y0.998
X0.257 Y0.997
X0.2512 Y0.996
X0.2326 Y0.9922
X0.2144 Y0.9878
X0.1968 Y0.9826
X0.1796 Y0.9768
X0.1632 Y0.9706
X0.1474 Y0.9636
X0.1324 Y0.9562
X0.1182 Y0.9482
X0.1126 Y0.9448
X0.0978 Y0.9498
X0.0852 Y0.9538
X0.0734 Y0.9572
X0.0498 Y0.9624
X0.0348 Y0.9644
X0.0254 Y0.9648
X0.0194
X0.0122
X0.0046
X-0.0014 Y0.9646
X-0.0064
X-0.0106 Y0.9644
X-0.0238 Y0.9624
X-0.0436 Y0.957
X-0.0622 Y0.9496
X-0.08 Y0.9402
X-0.097 Y0.9284
X-0.1136 Y0.9144
X-0.1296 Y0.8978
X-0.1454 Y0.8786
X-0.1612 Y0.8564
X-0.1696 Y0.8438
X-0.178 Y0.8304
X-0.1828 Y0.8226
X-0.1882 Y0.8134
X-0.1948 Y0.8024
X-0.2024 Y0.7892
X-0.2128 Y0.7722
X-0.2224 Y0.7566
X-0.2268 Y0.7496
X-0.2308 Y0.7436
X-0.2344 Y0.7384
X-0.2374 Y0.734
X-0.241 Y0.7294
X-0.2326 Y0.7354
X-0.2166 Y0.7466
X-0.209 Y0.752
X-0.2096 Y0.747
X-0.2112 Y0.7298
X-0.212 Y0.7128
X-0.2118 Y0.6958
X-0.2106 Y0.679
X-0.2086 Y0.6624
X-0.2056 Y0.6458
X-0.2016 Y0.6294
X-0.1968 Y0.6132
X-0.1884 Y0.5902
X-0.1834 Y0.5786
X-0.1778 Y0.5662
X-0.1712 Y0.553
X-0.1636 Y0.5384
X-0.1548 Y0.5224
X-0.1446 Y0.5044
X-0.134 Y0.4854
X-0.125 Y0.4686
X-0.1174 Y0.4538
X-0.1114 Y0.4406
X-0.1064 Y0.4288
X-0.1028 Y0.4184
X-0.1002 Y0.4086
X-0.0986 Y0.3996
X-0.098 Y0.396
X-0.0976 Y0.3936
X-0.0972 Y0.3926
X-0.0968
X-0.0964 Y0.3942
X-0.096 Y0.3968
X-0.0956 Y0.401
X-0.0952 Y0.4064
X-0.0948 Y0.411
X-0.0944 Y0.4144
X-0.0938 Y0.4166
X-0.0934 Y0.417
X-0.0922 Y0.4158
X-0.09 Y0.4128
X-0.0872 Y0.4082
X-0.0836 Y0.4024
X-0.0754 Y0.3884
X-0.067 Y0.3734
X-0.055 Y0.35
X-0.044 Y0.326
X-0.0342 Y0.302
X-0.0256 Y0.278
X-0.0184 Y0.2548
X-0.0126 Y0.2324
X-0.0086 Y0.2116
X-0.0064 Y0.1924
X-0.0056 Y0.1814
X-0.0028 Y0.1866
X-0.001 Y0.1902
X0.0004 Y0.1926
X0.0016 Y0.194
X0.0024 Y0.1944
X0.0034 Y0.1936
X0.0042 Y0.1918
X0.0054 Y0.1888
X0.0066 Y0.1846
X0.0124 Y0.1652
X0.0172 Y0.146
X0.021 Y0.1266
X0.0238 Y0.1072
X0.0256 Y0.0876
X0.0266 Y0.0682
X0.0264 Y0.0488
X0.0254 Y0.0294
X0.0234 Y0.01
X0.0204 Y-0.0094
X0.0166 Y-0.0288
X0.0116 Y-0.048
X0.0058 Y-0.067
X-0.001 Y-0.0862
X-0.0088 Y-0.105
X-0.0174 Y-0.1238
X-0.028 Y-0.1442
X-0.039 Y-0.1632
X-0.0508 Y-0.1816
X-0.064 Y-0.1998
X-0.0732 Y-0.2118
X-0.0818 Y-0.2222
X-0.0854 Y-0.2266
X-0.0882 Y-0.2298
X-0.0904 Y-0.2318
X-0.0914 Y-0.2326
X-0.0924 Y-0.2322
X-0.0942 Y-0.2308
X-0.1032 Y-0.2238
X-0.1078 Y-0.2206
X-0.1182 Y-0.2132
X-0.1284 Y-0.2064
X-0.133 Y-0.2036
X-0.1366 Y-0.2014
X-0.1408 Y-0.1988
X-0.1428 Y-0.1972
X-0.1426 Y-0.1966
X-0.1402
X-0.136 Y-0.197
X-0.1306 Y-0.1976
X-0.1276 Y-0.1978
X-0.126
Y-0.1974
X-0.127 Y-0.1968
X-0.1344 Y-0.1936
X-0.141 Y-0.1904
X-0.1532 Y-0.1836
X-0.166 Y-0.1748
X-0.1732 Y-0.1694
X-0.1816 Y-0.1628
X-0.1958 Y-0.1516
X-0.2016 Y-0.1472
X-0.2052 Y-0.1444
X-0.2094 Y-0.1412
X-0.2104 Y-0.14
X-0.2106 Y-0.1394
X-0.2088 Y-0.139
X-0.2056 Y-0.1388
X-0.2008 Y-0.1386
X-0.1992 Y-0.1378
X-0.2004 Y-0.1362
X-0.2044 Y-0.1336
X-0.2098 Y-0.1302
X-0.2156 Y-0.1262
X-0.2282 Y-0.1158
X-0.2414 Y-0.1038
X-0.2538 Y-0.0912
X-0.2622 Y-0.0818
X-0.2588 Y-0.0752
X-0.2518 Y-0.0596
X-0.2488 Y-0.0514
X-0.2468 Y-0.0436
X-0.2452 Y-0.0346
X-0.2446 Y-0.0244
X-0.245 Y-0.0144
X-0.2464 Y-0.0062
X-0.2488 Y0.001
X-0.2522 Y0.0078
X-0.2564 Y0.0142
X-0.2616 Y0.0202
X-0.2676 Y0.0256
X-0.2744 Y0.0304
X-0.2818 Y0.0348
X-0.2898 Y0.0382
X-0.295 Y0.0402
X-0.2992 Y0.042
X-0.3058 Y0.045
X-0.3106 Y0.0482
X-0.315 Y0.0522
X-0.32 Y0.058
X-0.324 Y0.0646
X-0.3276 Y0.072
X-0.3302 Y0.0806
X-0.332 Y0.0902
X-0.3324 Y0.096
X-0.3326 Y0.1038
X-0.3316 Y0.1224
X-0.3282 Y0.1408
X-0.322 Y0.1596
X-0.318 Y0.1694
X-0.3134 Y0.1798
X-0.3008 Y0.2024
X-0.2932 Y0.2142
X-0.2886 Y0.2206
X-0.2834 Y0.2278
X-0.2668 Y0.251
X-0.252 Y0.274
X-0.239 Y0.2964
X-0.2278 Y0.3188
X-0.2182 Y0.3408
X-0.2102 Y0.3626
X-0.204 Y0.3844
X-0.1996 Y0.406
X-0.1968 Y0.4276
X-0.1958 Y0.4494
X-0.1964 Y0.471
X-0.1986 Y0.4928
X-0.2024 Y0.5146
X-0.208 Y0.5368
X-0.2152 Y0.5592
X-0.224 Y0.5818
X-0.2264 Y0.5876
X-0.2286 Y0.5922
X-0.23 Y0.5954
X-0.2306 Y0.5966
Y0.596
Y0.5944
X-0.2302 Y0.589
X-0.2304 Y0.5808
X-0.232 Y0.5742
X-0.235 Y0.5694
X-0.239 Y0.567
X-0.2404
X-0.242 Y0.5684
X-0.2444 Y0.5716
X-0.2478 Y0.577
X-0.2522 Y0.5842
X-0.2562 Y0.5902
X-0.2596 Y0.5952
X-0.2626 Y0.5992
X-0.265 Y0.6022
X-0.2672 Y0.6044
X-0.2688 Y0.6056
X-0.2702 Y0.606
X-0.2704 Y0.605
Y0.6024
Y0.5984
X-0.2702 Y0.5938
X-0.27 Y0.5898
X-0.2698 Y0.5868
X-0.27 Y0.5826
X-0.272 Y0.5768
X-0.2746 Y0.5726
X-0.2776 Y0.57
X-0.2812 Y0.5684
X-0.2856 Y0.568
X-0.291 Y0.5688
X-0.2966 Y0.571
X-0.302 Y0.5744
X-0.3072 Y0.5788
X-0.312 Y0.5842
X-0.3164 Y0.5904
X-0.3202 Y0.5972
X-0.3232 Y0.6046
X-0.3256 Y0.6136
X-0.327 Y0.623
X-0.3274 Y0.6326
X-0.3268 Y0.6426
X-0.3252 Y0.6528
X-0.3226 Y0.6632
X-0.3188 Y0.674
X-0.3142 Y0.6852
X-0.3102 Y0.694
X-0.3172 Y0.7006
X-0.3312 Y0.7122
X-0.345 Y0.722
X-0.3584 Y0.7294
X-0.3648 Y0.732
X-0.3708 Y0.734
X-0.3792 Y0.736
X-0.3886 Y0.7368
X-0.3998 Y0.737
X-0.4066 Y0.7366
X-0.4144 Y0.7362
X-0.4206 Y0.7358
X-0.4254 Y0.7354
X-0.4332
X-0.4402 Y0.7358
X-0.4444 Y0.7364
X-0.4494 Y0.737
X-0.465 Y0.739
X-0.48 Y0.7404
X-0.4942 Y0.7412
X-0.508
X-0.5346 Y0.7394
X-0.56 Y0.7352
X-0.5784 Y0.7302
X-0.597 Y0.7232
X-0.6152 Y0.7148
X-0.6316 Y0.7054
X-0.6476 Y0.6938
X-0.6628 Y0.6808
X-0.677 Y0.6662
X-0.6904 Y0.6506
X-0.7026 Y0.6336
X-0.7138 Y0.6154
X-0.7236 Y0.5964
X-0.7322 Y0.5762
X-0.7358 Y0.5672
X-0.739 Y0.5596
X-0.7418 Y0.5532
X-0.7444 Y0.548
X-0.7494 Y0.5396
X-0.7552 Y0.5326
X-0.7588 Y0.5284
X-0.7598 Y0.5272
X-0.76 Y0.5268
X-0.7594 Y0.527
X-0.7578 Y0.5274
X-0.7524 Y0.5288
X-0.7492 Y0.5298
X-0.7468 Y0.5304
X-0.744 Y0.5306
X-0.7432 Y0.5292
X-0.7438 Y0.5256
X-0.7444 Y0.5218
X-0.7446 Y0.5168
X-0.7448 Y0.5044
X-0.7446 Y0.4916
X-0.7442 Y0.4858
X-0.7438 Y0.481
X-0.742 Y0.4698
X-0.7394 Y0.4564
X-0.7376 Y0.4488
X-0.7356 Y0.4402
X-0.7332 Y0.4306
X-0.728 Y0.4092
X-0.7258 Y0.4
X-0.724 Y0.3922
X-0.7226 Y0.3854
X-0.7212 Y0.374
X-0.7208 Y0.3632
X-0.7206 Y0.3592
X-0.7204 Y0.3562
X-0.7202 Y0.3546
X-0.7198 Y0.3542
X-0.719 Y0.355
X-0.718 Y0.3572
X-0.7166 Y0.3606
X-0.7148 Y0.3654
X-0.7126 Y0.371
X-0.7118 Y0.373
X-0.7114 Y0.374
X-0.7102 Y0.3734
X-0.7082 Y0.3712
X-0.7054 Y0.3672
X-0.7022 Y0.3622
X-0.6884 Y0.338
X-0.6832 Y0.3266
X-0.6788 Y0.3158
X-0.6726 Y0.2934
X-0.6718 Y0.288
X-0.671 Y0.2816
X-0.67 Y0.2672
X-0.6698 Y0.2528
X-0.6702 Y0.2464
X-0.6706 Y0.2412
X-0.6742 Y0.2234
X-0.68 Y0.2066
X-0.6874 Y0.1912
X-0.6964 Y0.1782
X-0.6982 Y0.1758
X-0.6994 Y0.1742
X-0.6998 Y0.1732
X-0.6992
X-0.6934 Y0.1754
X-0.6884 Y0.177
X-0.6796 Y0.1776
X-0.6744 Y0.1768
X-0.6696 Y0.175
X-0.6654 Y0.1726
X-0.6618 Y0.1692
X-0.6582 Y0.165
X-0.656 Y0.1608
X-0.655 Y0.156
X-0.6546 Y0.1496
X-0.6552 Y0.1422
X-0.6568 Y0.1356
X-0.6598 Y0.1294
X-0.6646 Y0.1222
X-0.6682 Y0.1172
X-0.6692 Y0.1156
X-0.6694 Y0.1148
X-0.667 Y0.114
X-0.6618 Y0.1132
X-0.6546 Y0.1128
X-0.646 Y0.1124
X-0.6266
X-0.6172 Y0.1126
X-0.6088 Y0.1132
X-0.5976 Y0.1144
X-0.5874 Y0.1156
X-0.569 Y0.1186
X-0.5526 Y0.1226
X-0.5378 Y0.1272
X-0.5322 Y0.1296
X-0.5254 Y0.1324
X-0.5106 Y0.1394
X-0.4956 Y0.1472
X-0.4888 Y0.1508
X-0.483 Y0.1542
X-0.4794 Y0.1564
X-0.4766 Y0.158
X-0.4732 Y0.1598
X-0.4716
X-0.4712 Y0.1586
Y0.1546
X-0.4728 Y0.1488
X-0.4762 Y0.1406
X-0.4812 Y0.1302
X-0.486 Y0.1208
X-0.492 Y0.1102
X-0.505 Y0.0882
X-0.5114 Y0.078
X-0.5172 Y0.0692
X-0.5222 Y0.062
X-0.5242 Y0.0594
X-0.5258 Y0.0576
X-0.5342 Y0.0506
X-0.5384 Y0.0484
X-0.5416 Y0.0476
X-0.5448 Y0.0484
X-0.5474 Y0.0508
X-0.5492 Y0.055
X-0.5502 Y0.0608
X-0.5506 Y0.0686
X-0.5502 Y0.0782
X-0.5492 Y0.09
X-0.5474 Y0.1038
X-0.5464 Y0.1106
X-0.5458 Y0.116
X-0.5452 Y0.1198
Y0.1214
X-0.546 Y0.1212
X-0.548 Y0.1206
X-0.5544 Y0.119
X-0.5608 Y0.117
X-0.563 Y0.1164
X-0.5642 Y0.116
X-0.5644 Y0.1146
X-0.5646 Y0.1108
X-0.565 Y0.1056
X-0.5656 Y0.099
X-0.5662 Y0.0864
X-0.566 Y0.075
X-0.565 Y0.0646
X-0.5632 Y0.0556
X-0.5608 Y0.0478
X-0.5578 Y0.0416
X-0.554 Y0.0368
X-0.5496 Y0.0338
X-0.545 Y0.0324
X-0.5396 Y0.032
X-0.5342 Y0.0328
X-0.529 Y0.0348
X-0.52 Y0.0408
X-0.5154 Y0.045
X-0.5106 Y0.0504
X-0.5056 Y0.057
X-0.4998 Y0.0652
X-0.4934 Y0.0752
X-0.4862 Y0.087
X-0.4776 Y0.1006
X-0.4692 Y0.113
X-0.4614 Y0.1236
X-0.4544 Y0.1318
X-0.4492 Y0.1376
X-0.4466 Y0.1288
X-0.4446 Y0.1184
X-0.4442 Y0.1118
Y0.1072
Y0.1018
Y0.0962
Y0.0916
X-0.4446 Y0.0848
X-0.4454 Y0.0794
X-0.447 Y0.0736
X-0.4538 Y0.0542
X-0.4582 Y0.0448
X-0.4628 Y0.0366
X-0.4682 Y0.0292
X-0.474 Y0.0224
X-0.4796 Y0.0174
X-0.4818 Y0.0158
X-0.4838 Y0.015
X-0.4892 Y0.013
X-0.4954 Y0.01
X-0.5014 Y0.0066
X-0.506 Y0.0034
X-0.5098 Y-0.0008
X-0.5124 Y-0.0054
X-0.514 Y-0.0104
X-0.5146 Y-0.0166
Y-0.0238
X-0.5214 Y-0.029
X-0.5302 Y-0.0364
X-0.54 Y-0.0458
X-0.549 Y-0.0558
X-0.5528 Y-0.0604
X-0.556 Y-0.0644
X-0.5626 Y-0.0746
X-0.5678 Y-0.0844
X-0.5718 Y-0.094
X-0.5744 Y-0.1032
X-0.5754 Y-0.112
X-0.5752 Y-0.1204
X-0.5736 Y-0.1286
X-0.5708 Y-0.1364
X-0.5652 Y-0.1446
X-0.5576 Y-0.1512
X-0.5482 Y-0.156
X-0.537 Y-0.1588
X-0.5314 Y-0.16
X-0.5296 Y-0.1606
X-0.529 Y-0.161
X-0.5292 Y-0.162
X-0.5298 Y-0.1642
X-0.5316 Y-0.171
X-0.5348 Y-0.1838
X-0.537 Y-0.1966
X-0.538 Y-0.2108
X-0.5384 Y-0.2188
Y-0.2278
Y-0.2364
Y-0.2428
X-0.5388 Y-0.248
X-0.5396 Y-0.2522
X-0.541 Y-0.2562
X-0.5432 Y-0.261
X-0.5466 Y-0.2668
X-0.551 Y-0.2746
X-0.5574 Y-0.2864
X-0.563 Y-0.2974
X-0.568 Y-0.3076
X-0.5724 Y-0.3174
X-0.5796 Y-0.3356
X-0.5848 Y-0.353
X-0.5876 Y-0.3664
X-0.5894 Y-0.3794
X-0.5902 Y-0.3924
X-0.5898 Y-0.405
X-0.5882 Y-0.4174
X-0.5856 Y-0.4296
X-0.5816 Y-0.4418
X-0.5768 Y-0.4538
X-0.575 Y-0.4576
X-0.5738 Y-0.4594
X-0.5732 Y-0.4596
X-0.5726 Y-0.4586
X-0.5724 Y-0.457
X-0.5722 Y-0.4546
X-0.5718 Y-0.4488
X-0.5714 Y-0.4418
X-0.571 Y-0.4358
X-0.5702 Y-0.43
X-0.5674 Y-0.44
X-0.5606 Y-0.4592
X-0.5564 Y-0.4682
X-0.5524 Y-0.4758
X-0.5456 Y-0.4858
X-0.538 Y-0.495
X-0.5282 Y-0.5046
X-0.5224 Y-0.51
X-0.5156 Y-0.516
X-0.508 Y-0.5226
X-0.5014 Y-0.5286
X-0.4958 Y-0.5342
X-0.491 Y-0.5396
X-0.4834 Y-0.55
X-0.4778 Y-0.5608
X-0.4766 Y-0.5632
X-0.4758 Y-0.565
X-0.4754 Y-0.5658
X-0.475 Y-0.5656
Y-0.5646
X-0.4752 Y-0.5626
X-0.4758 Y-0.5596
X-0.4778 Y-0.5472
X-0.478 Y-0.5464
X-0.4774 Y-0.5466
X-0.476 Y-0.5478
X-0.4714 Y-0.5512
X-0.4586 Y-0.5606
X-0.4458 Y-0.568
X-0.4316 Y-0.5746
X-0.4236 Y-0.5778
X-0.4014 Y-0.5858
X-0.3966 Y-0.5876
X-0.3938 Y-0.5888
X-0.388 Y-0.5922
X-0.382 Y-0.5968
X-0.3764 Y-0.6018
X-0.3716 Y-0.607
X-0.3676 Y-0.6116
X-0.3664 Y-0.613
X-0.3658 Y-0.6134
X-0.366 Y-0.6124
X-0.367 Y-0.61
X-0.3686 Y-0.6064
X-0.3706 Y-0.602
X-0.3726 Y-0.5976
X-0.374 Y-0.5942
X-0.3748 Y-0.5918
Y-0.591
X-0.3732 Y-0.5916
X-0.37 Y-0.5934
X-0.3658 Y-0.5962
X-0.3612 Y-0.5996
X-0.3512 Y-0.607
X-0.347 Y-0.6106
X-0.3436 Y-0.6136
X-0.337 Y-0.6204
X-0.3324 Y-0.6264
X-0.3298 Y-0.6318
X-0.329 Y-0.637
X-0.3296 Y-0.6414
X-0.3322 Y-0.6444
X-0.3362 Y-0.647
X-0.3412 Y-0.6488
X-0.3472 Y-0.65
X-0.354 Y-0.6504
X-0.36 Y-0.65
X-0.364 Y-0.6494
X-0.3688 Y-0.6486
X-0.3746 Y-0.6476
X-0.3818 Y-0.6462
X-0.3906 Y-0.6444
X-0.4012 Y-0.642
X-0.4134 Y-0.6398
X-0.4242 Y-0.6388
X-0.4338
X-0.4424 Y-0.6398
X-0.4498 Y-0.6422
X-0.4562 Y-0.6456
X-0.4618 Y-0.6502
X-0.4664 Y-0.6562
X-0.4696 Y-0.661
X-0.467 Y-0.6654
X-0.4658 Y-0.6676
X-0.4644 Y-0.671
X-0.4614 Y-0.679
X-0.459 Y-0.685
X-0.4568 Y-0.69
X-0.4544 Y-0.694
X-0.452 Y-0.6972
X-0.4464 Y-0.7012
X-0.439 Y-0.703
X-0.4354 Y-0.7032
X-0.433 Y-0.703
X-0.431 Y-0.7022
X-0.4286 Y-0.7004
X-0.4206 Y-0.6948
X-0.4112 Y-0.6904
X-0.4002 Y-0.6866
X-0.3872 Y-0.6834
X-0.3726 Y-0.6814
X-0.368 Y-0.6812
X-0.3622
X-0.3552 Y-0.681
X-0.3462
X-0.336 Y-0.6812
X-0.3272 Y-0.6814
X-0.312 Y-0.6822
X-0.2982 Y-0.6838
X-0.2832 Y-0.6864
X-0.2754 Y-0.6876
X-0.2692
X-0.264 Y-0.6868
X-0.2588 Y-0.6848
X-0.2516 Y-0.6804
X-0.2464 Y-0.6748
X-0.2432 Y-0.6682
X-0.242 Y-0.6608
X-0.2426 Y-0.6544
X-0.2448 Y-0.6488
X-0.247 Y-0.6456
X-0.25 Y-0.642
X-0.2538 Y-0.6378
X-0.2588 Y-0.6326
X-0.265 Y-0.6258
X-0.2702 Y-0.6196
X-0.2746 Y-0.6138
X-0.278 Y-0.6084
X-0.2822 Y-0.5978
X-0.2836 Y-0.5872
X-0.2822 Y-0.5778
X-0.278 Y-0.5692
X-0.271 Y-0.5618
X-0.2616 Y-0.5558
X-0.254 Y-0.5522
X-0.2464 Y-0.5502
X-0.2376 Y-0.5492
X-0.2322 Y-0.549
X-0.226 Y-0.5488
X-0.22
X-0.215 Y-0.549
X-0.2062 Y-0.5498
X-0.1976 Y-0.5516
X-0.1926 Y-0.5528
X-0.1868 Y-0.5546
X-0.181 Y-0.5566
X-0.1736 Y-0.5598
X-0.1562 Y-0.5678
X-0.1476 Y-0.572
X-0.14 Y-0.576
X-0.1342 Y-0.5794
X-0.1304 Y-0.582
X-0.1264 Y-0.5864
X-0.1232 Y-0.5918
X-0.1202 Y-0.5978
X-0.1206 Y-0.6184
Y-0.6246
Y-0.6296
Y-0.6334
X-0.1204 Y-0.6364
X-0.1198 Y-0.6404
X-0.1188 Y-0.6434
X-0.1164 Y-0.6472
X-0.1132 Y-0.6506
X-0.109 Y-0.6534
X-0.1038 Y-0.6556
X-0.0978 Y-0.6574
X-0.0906 Y-0.6586
X-0.0824 Y-0.6594
X-0.0734 Y-0.6596
X-0.0636 Y-0.66
X-0.0552 Y-0.6612
X-0.0476 Y-0.6634
X-0.0404 Y-0.6664
X-0.0322 Y-0.671
X-0.0282 Y-0.674
X-0.0236 Y-0.6776
X-0.0186 Y-0.6822
X-0.0124 Y-0.688
X-0.005 Y-0.6952
X0.0038 Y-0.704
X0.0126 Y-0.7128
X0.02 Y-0.72
X0.0264 Y-0.7258
X0.0318 Y-0.7304
X0.0366 Y-0.7338
X0.041 Y-0.7366
X0.05 Y-0.7406
X0.058 Y-0.7428
X0.0658 Y-0.7436
X0.0744 Y-0.7432
X0.0848 Y-0.7416
X0.1024 Y-0.737
X0.1172 Y-0.7314
X0.1294 Y-0.7248
X0.1386 Y-0.7172
X0.1422 Y-0.7132
X0.1448 Y-0.7092
X0.1466 Y-0.7048
X0.1476 Y-0.7006
X0.1478 Y-0.696
X0.147 Y-0.6916
X0.1454 Y-0.687
X0.1428 Y-0.6824
X0.138 Y-0.6766
X0.1316 Y-0.672
X0.1244 Y-0.6688
X0.1164 Y-0.6668
X0.108 Y-0.666
X0.0992 Y-0.6668
X0.0906 Y-0.6688
X0.0824 Y-0.6724
X0.0762 Y-0.6756
X0.0684 Y-0.6678
X0.0564 Y-0.6572
X0.0426 Y-0.648
X0.0266 Y-0.6396
X0.0172 Y-0.6356
X0.0068 Y-0.6316
X-0.0052 Y-0.6268
X-0.0152 Y-0.6222
X-0.0234 Y-0.6178
X-0.0298 Y-0.6132
X-0.035 Y-0.6082
X-0.0388 Y-0.6026
X-0.0418 Y-0.5962
X-0.0442 Y-0.5888
X-0.0456 Y-0.5804
X-0.046 Y-0.5702
X-0.0454 Y-0.56
X-0.0438 Y-0.5508
X-0.0412 Y-0.543
X-0.0376 Y-0.5344
X-0.0342 Y-0.5272
X-0.0328 Y-0.525
X-0.032 Y-0.5242
X-0.0314 Y-0.5258
X-0.0312 Y-0.5296
X-0.031 Y-0.5326
X-0.0308 Y-0.534
X-0.0304 Y-0.5342
X-0.0296 Y-0.5332
X-0.0282 Y-0.5312
X-0.0266 Y-0.5282
X-0.0226 Y-0.5204
X-0.0186 Y-0.5116
X-0.0152 Y-0.5034
X-0.0086 Y-0.4824
X-0.0044 Y-0.4604
X-0.0024 Y-0.4388
X-0.0022 Y-0.4286
X-0.0028 Y-0.4192
X-0.0036 Y-0.4114
X-0.0038 Y-0.409
Y-0.408
X-0.0032 Y-0.4086
X-0.002 Y-0.4104
X0.0018 Y-0.4168
X0.0034 Y-0.4198
X0.0048 Y-0.422
X0.0062 Y-0.4242
X0.007
X0.0072 Y-0.4222
Y-0.42
Y-0.4166
X0.0064 Y-0.4086
X0.0034 Y-0.391
X-0.0014 Y-0.3722
X-0.0076 Y-0.3532
X-0.0152 Y-0.3348
X-0.0214 Y-0.3216
X-0.0104 Y-0.3192
X0.0068 Y-0.315
X0.0226 Y-0.3102
X0.0364 Y-0.305
X0.048 Y-0.2994
X0.0564 Y-0.2942
X0.0654 Y-0.2874
X0.0706 Y-0.283
X0.0762 Y-0.278
X0.0824 Y-0.2722
X0.0972 Y-0.2582
X0.104 Y-0.252
X0.109 Y-0.2474
X0.1106 Y-0.2458
X0.1116 Y-0.245
X0.1148 Y-0.2428
X0.1126 Y-0.2484
X0.1108 Y-0.2528
X0.1086 Y-0.2574
Y-0.2582
X0.1092
X0.1106 Y-0.2574
X0.113 Y-0.2556
X0.1162 Y-0.253
X0.1204 Y-0.2494
X0.1256 Y-0.2448
G0 X0.0502 Y-0.1968
G1 X0.0292 Y-0.2196 F15
X0.007 Y-0.24
X-0.0042 Y-0.249
X-0.0152 Y-0.2568
X-0.0328 Y-0.2674
X-0.0406 Y-0.2718
X-0.0468 Y-0.2746
X-0.0506 Y-0.2762
X-0.0564 Y-0.269
X-0.0606 Y-0.2638
X-0.062 Y-0.262
X-0.0624 Y-0.2612
X-0.062 Y-0.2608
X-0.061 Y-0.2594
X-0.0592 Y-0.2574
X-0.057 Y-0.2548
X-0.0514 Y-0.2482
X-0.0444 Y-0.24
X-0.0282 Y-0.2214
X-0.0134 Y-0.2038
X0.0002 Y-0.1872
X0.0124 Y-0.1716
X0.0236 Y-0.1568
X0.0336 Y-0.1426
X0.0424 Y-0.129
X0.0504 Y-0.1158
X0.0576 Y-0.103
X0.0638 Y-0.0902
X0.0742 Y-0.0648
X0.082 Y-0.0386
X0.088 Y-0.0108
X0.0902 Y0.0022
X0.0922 Y0.0158
X0.0928 Y0.0218
X0.0934 Y0.0268
X0.0938 Y0.03
X0.0936 Y0.0314
X0.0932 Y0.031
X0.0918 Y0.0294
X0.0882 Y0.0236
X0.0846 Y0.0178
X0.0834 Y0.0162
X0.0828 Y0.0156
Y0.0172
X0.0834 Y0.021
X0.0842 Y0.0264
X0.0852 Y0.0332
X0.0866 Y0.043
X0.0876 Y0.0514
X0.088 Y0.0612
Y0.0674
Y0.0746
Y0.0802
Y0.0866
X0.0878 Y0.1008
X0.0874 Y0.1156
X0.0872 Y0.1292
X0.086 Y0.1592
X0.0814 Y0.1528
X0.0796 Y0.15
X0.0782 Y0.1484
X0.0772 Y0.1478
X0.0762 Y0.1484
X0.0756 Y0.1504
X0.0748 Y0.154
X0.074 Y0.1594
X0.073 Y0.1668
X0.0674 Y0.203
X0.0638 Y0.221
X0.0598 Y0.2396
X0.055 Y0.2598
X0.0492 Y0.2818
X0.0424 Y0.3064
X0.0386 Y0.3198
X0.0344 Y0.334
X0.0302 Y0.349
X0.0262 Y0.3626
X0.0228 Y0.375
X0.0198 Y0.3862
X0.0172 Y0.3964
X0.0148 Y0.4058
X0.011 Y0.422
X0.01 Y0.4274
X0.0086 Y0.4342
X0.0056 Y0.45
X0.0044 Y0.4576
X0.0032 Y0.464
X0.0024 Y0.4688
X0.0022 Y0.471
X0.002
X0.0014 Y0.4702
X-0.0004 Y0.4664
X-0.0026 Y0.4628
X-0.0034 Y0.4618
X-0.004
X-0.0046 Y0.4636
X-0.0058 Y0.4676
X-0.0074 Y0.4734
X-0.009 Y0.4804
X-0.0126 Y0.496
X-0.0142 Y0.5032
X-0.0154 Y0.5096
X-0.019 Y0.5322
X-0.0214 Y0.5526
X-0.0226 Y0.5722
X-0.0224 Y0.5918
X-0.0212 Y0.6116
X-0.019 Y0.6292
X-0.0152 Y0.6458
X-0.01 Y0.6626
X-0.0064 Y0.6726
X-0.0092 Y0.6704
X-0.0176 Y0.6632
X-0.02 Y0.6612
X-0.0216 Y0.6602
X-0.0224 Y0.66
Y0.6606
X-0.0222 Y0.6616
X-0.0216 Y0.6632
X-0.0202 Y0.6686
X-0.018 Y0.6762
X-0.0156 Y0.685
X-0.0112 Y0.6994
X-0.007 Y0.7132
X0.0014 Y0.7382
X0.01 Y0.7604
X0.0192 Y0.7804
X0.0292 Y0.7986
X0.0402 Y0.8156
X0.0524 Y0.8318
X0.066 Y0.8478
X0.0752 Y0.858
X0.0686 Y0.855
X0.0616 Y0.8518
X0.0538 Y0.8482
X0.0478 Y0.8456
X0.0456 Y0.845
X0.0448 Y0.8446
X0.045 Y0.8454
X0.0468 Y0.8474
X0.0496 Y0.8504
X0.0534 Y0.8544
X0.058 Y0.8592
X0.0632 Y0.8644
X0.0752 Y0.876
X0.0878 Y0.8884
X0.1 Y0.8998
X0.1054 Y0.905
X0.1104 Y0.9094
X0.1144 Y0.9132
X0.1176 Y0.9158
X0.1382 Y0.9318
X0.1584 Y0.9458
X0.1788 Y0.9578
X0.199 Y0.968
X0.2194 Y0.9762
X0.24 Y0.9826
X0.2612 Y0.9874
X0.2828 Y0.9904
X0.289 Y0.9908
X0.2964
X0.3132 Y0.9906
X0.3306 Y0.9898
X0.3386 Y0.989
X0.3454 Y0.9882
X0.3642 Y0.985
X0.3824 Y0.9808
X0.4004 Y0.9756
X0.4188 Y0.9692
X0.4244 Y0.9672
X0.4308 Y0.9646
X0.4446 Y0.9588
X0.4506 Y0.956
X0.4556 Y0.9538
X0.4586 Y0.9524
X0.4594 Y0.9518
X0.4584 Y0.952
X0.4558 Y0.9524
X0.4484 Y0.9538
X0.4244 Y0.9582
X0.401 Y0.9608
X0.379 Y0.962
X0.3588 Y0.9614
X0.3434 Y0.9598
X0.329 Y0.9574
X0.3154 Y0.954
X0.3024 Y0.95
X0.2902 Y0.9448
X0.2782 Y0.9388
X0.2668 Y0.9316
X0.2556 Y0.9236
X0.251 Y0.92
X0.2496 Y0.9192
X0.249 Y0.9188
X0.2494 Y0.9192
X0.2502 Y0.9204
X0.2532 Y0.9244
X0.2578 Y0.9304
X0.2636 Y0.9376
X0.2764 Y0.9542
X0.2828 Y0.9622
X0.2886 Y0.9694
X0.2908 Y0.9724
X0.291 Y0.9732
X0.2908 Y0.973
X0.284 Y0.9678
X0.27 Y0.9568
X0.2508 Y0.9416
X0.2328 Y0.9268
X0.2162 Y0.9124
X0.2008 Y0.8986
X0.1864 Y0.885
X0.173 Y0.8716
X0.1608 Y0.8584
X0.1498 Y0.8456
X0.1394 Y0.8326
X0.1302 Y0.8198
X0.1218 Y0.8072
X0.1142 Y0.7942
X0.1012 Y0.7682
X0.091 Y0.7412
X0.084 Y0.717
X0.0808 Y0.7038
X0.078 Y0.69
X0.0752 Y0.6748
X0.0726 Y0.6584
X0.0702 Y0.6404
X0.067 Y0.613
X0.0662 Y0.6068
X0.0656 Y0.6026
X0.0654 Y0.601
X0.0648 Y0.602
X0.0634 Y0.6054
X0.0616 Y0.6102
X0.0594 Y0.6162
X0.0572 Y0.6224
X0.0554 Y0.6272
X0.054 Y0.6304
X0.0536 Y0.6316
Y0.631
Y0.6298
X0.0538 Y0.6248
X0.0542 Y0.6176
X0.0548 Y0.609
X0.057 Y0.5818
X0.0594 Y0.5558
X0.0624 Y0.5314
X0.0656 Y0.5082
X0.0692 Y0.4864
X0.0732 Y0.4656
X0.0776 Y0.4462
X0.0824 Y0.4278
X0.0838 Y0.4228
X0.0858 Y0.4166
X0.0904 Y0.4024
X0.095 Y0.3884
X0.097 Y0.3828
X0.0986 Y0.3784
X0.0984 Y0.378
X0.0974 Y0.3784
X0.0956 Y0.3798
X0.0932 Y0.382
X0.0832 Y0.3912
X0.0794 Y0.3946
X0.084 Y0.386
X0.0906 Y0.3718
X0.0966 Y0.3556
X0.1022 Y0.3374
X0.1074 Y0.317
X0.112 Y0.2948
X0.1162 Y0.2708
X0.1198 Y0.2446
X0.123 Y0.2168
X0.124 Y0.2066
X0.1248 Y0.1992
X0.125 Y0.1942
X0.1246 Y0.1918
X0.1236 Y0.1912
X0.122 Y0.1926
X0.1196 Y0.1958
X0.1162 Y0.2004
X0.113 Y0.2048
X0.1104 Y0.2086
X0.1084 Y0.211
X0.1078 Y0.2118
X0.1082 Y0.2104
X0.1094 Y0.207
X0.1114 Y0.202
X0.1138 Y0.196
X0.1222 Y0.1742
X0.129 Y0.154
X0.1346 Y0.135
X0.1388 Y0.1166
X0.1418 Y0.099
X0.1436 Y0.0818
X0.1442 Y0.0644
X0.1438 Y0.0466
X0.1434 Y0.0398
X0.1428 Y0.0316
X0.1416 Y0.0134
X0.1408 Y0.0048
X0.1402 Y-0.0024
X0.1398 Y-0.0076
X0.1394 Y-0.01
X0.1386 Y-0.0092
X0.1368 Y-0.0068
X0.1342 Y-0.0028
X0.1278 Y0.0074
X0.125 Y0.0114
X0.1232 Y0.014
X0.1224 Y0.015
X0.1222 Y0.014
Y0.0118
X0.123 Y0.0052
X0.124 Y-0.0154
X0.1228 Y-0.037
X0.1192 Y-0.0594
X0.1132 Y-0.0824
X0.1052 Y-0.1056
X0.095 Y-0.1286
X0.083 Y-0.151
X0.069 Y-0.1728
X0.0502 Y-0.1968
G0 X-0.0178 Y0.7776
G1 X-0.025 Y0.7552 F15
X-0.031 Y0.732
X-0.036 Y0.7082
X-0.04 Y0.6836
X-0.0426 Y0.6586
X-0.0432 Y0.6528
X-0.0438 Y0.6482
X-0.0444 Y0.645
X-0.0446 Y0.644
X-0.0456 Y0.6456
X-0.0472 Y0.6494
X-0.0496 Y0.6552
X-0.0552 Y0.669
X-0.0576 Y0.6746
X-0.0592 Y0.6784
X-0.0598 Y0.6796
X-0.0596 Y0.6778
X-0.059 Y0.6734
X-0.0582 Y0.6668
X-0.057 Y0.6588
X-0.0562 Y0.6536
X-0.0554 Y0.6466
X-0.0544 Y0.6384
X-0.0532 Y0.629
X-0.0508 Y0.608
X-0.0468 Y0.5722
X-0.0452 Y0.559
X-0.0438 Y0.5468
X-0.0424 Y0.5354
X-0.0396 Y0.5146
X-0.0368 Y0.4958
X-0.0308 Y0.4614
X-0.0272 Y0.4442
X-0.0232 Y0.4258
X-0.02 Y0.4122
X-0.0172 Y0.4006
X-0.0114 Y0.3798
X-0.0078 Y0.3688
X-0.0032 Y0.3562
X-0.0004 Y0.349
X0.0026 Y0.3412
X0.006 Y0.3324
X0.0098 Y0.3226
X0.015 Y0.309
X0.0198 Y0.2964
X0.0242 Y0.2848
X0.0282 Y0.2738
X0.035 Y0.254
X0.0408 Y0.2364
X0.0454 Y0.2204
X0.049 Y0.2054
X0.0544 Y0.1762
X0.055 Y0.1704
X0.0554 Y0.1622
X0.0558 Y0.1428
Y0.1328
X0.0554 Y0.1238
X0.055 Y0.1166
X0.0544 Y0.1118
X0.0538 Y0.1072
X0.0536 Y0.1058
Y0.1052
X0.0542 Y0.1054
X0.0552 Y0.1066
X0.058 Y0.1104
X0.0622 Y0.1158
X0.063 Y0.1086
X0.0632 Y0.1062
X0.0634 Y0.1024
X0.0636 Y0.0976
X0.0638 Y0.0914
X0.064 Y0.077
Y0.0606
Y0.0452
Y0.0324
X0.0636 Y0.0216
X0.063 Y0.012
X0.0608 Y-0.006
X0.059 Y-0.0158
X0.0568 Y-0.027
X0.05 Y-0.0558
X0.041 Y-0.084
X0.0298 Y-0.1112
X0.0168 Y-0.1376
X0.0016 Y-0.1632
X-0.0156 Y-0.188
X-0.035 Y-0.2122
X-0.0566 Y-0.2356
X-0.0614 Y-0.2404
X-0.0652 Y-0.2442
X-0.068 Y-0.247
X-0.07 Y-0.2488
X-0.0726 Y-0.2502
X-0.074 Y-0.2496
X-0.0748 Y-0.2486
Y-0.2472
X-0.0732 Y-0.2448
X-0.0584 Y-0.2256
X-0.0476 Y-0.2112
X-0.0282 Y-0.1834
X-0.0114 Y-0.1566
X0.003 Y-0.1306
X0.015 Y-0.1052
X0.0248 Y-0.08
X0.0326 Y-0.0544
X0.0386 Y-0.0284
X0.0424 Y-0.005
X0.0446 Y0.019
X0.0456 Y0.0436
X0.045 Y0.069
X0.0432 Y0.0948
X0.0398 Y0.1214
X0.035 Y0.1486
X0.0286 Y0.1762
X0.0218 Y0.2016
X0.0142 Y0.2268
X0.0098 Y0.2398
X0.005 Y0.2536
X-0.0004 Y0.2686
X-0.0064 Y0.2846
X-0.0204 Y0.3224
X-0.0328 Y0.3576
X-0.0436 Y0.3906
X-0.0532 Y0.4218
X-0.0612 Y0.4514
X-0.0682 Y0.4798
X-0.0738 Y0.5074
X-0.0786 Y0.5344
X-0.0802 Y0.5454
X-0.0814 Y0.5554
X-0.0832 Y0.5744
X-0.084 Y0.5932
Y0.6142
X-0.0836 Y0.6244
X-0.0834 Y0.6334
X-0.082 Y0.6486
X-0.08 Y0.6616
X-0.077 Y0.674
X-0.0758 Y0.6788
X-0.0756 Y0.68
X-0.0758 Y0.6804
X-0.0762 Y0.6798
X-0.0772 Y0.678
X-0.0786 Y0.6752
X-0.0806 Y0.6714
X-0.0856 Y0.662
X-0.0916 Y0.6506
X-0.0962 Y0.642
X-0.0998 Y0.6352
X-0.1024 Y0.6302
X-0.1044 Y0.6268
X-0.1058 Y0.6248
X-0.1068 Y0.6238
X-0.1076 Y0.6244
X-0.108 Y0.628
X-0.1084 Y0.6338
X-0.1088 Y0.6414
X-0.109 Y0.6496
Y0.6664
X-0.1088 Y0.6734
X-0.1084 Y0.6784
X-0.104 Y0.7034
X-0.0972 Y0.7296
X-0.0876 Y0.7566
X-0.0758 Y0.784
X-0.073 Y0.7898
X-0.0708 Y0.7946
X-0.0694 Y0.798
X-0.069 Y0.7992
X-0.0702 Y0.7984
X-0.0736 Y0.7958
X-0.0784 Y0.792
X-0.0842 Y0.7872
X-0.0902 Y0.7824
X-0.0952 Y0.7784
X-0.0986 Y0.7758
X-0.1 Y0.7746
X-0.1002 Y0.7758
X-0.0998 Y0.7794
X-0.0986 Y0.785
X-0.0968 Y0.7926
X-0.0936 Y0.8032
X-0.0896 Y0.8142
X-0.0792 Y0.8368
X-0.0662 Y0.859
X-0.0514 Y0.8794
X-0.0474 Y0.8842
X-0.0424 Y0.8896
X-0.031 Y0.9012
X-0.0196 Y0.912
X-0.0142 Y0.9166
X-0.0098 Y0.9202
X0.0076 Y0.932
X0.0246 Y0.941
X0.0416 Y0.9474
X0.059 Y0.9512
X0.0646 Y0.9514
X0.0716 Y0.951
X0.0788 Y0.95
X0.0848 Y0.9486
X0.0898 Y0.9466
X0.0956 Y0.9438
X0.1004 Y0.941
X0.1018 Y0.9398
X0.1026 Y0.939
X0.1016 Y0.9382
X0.099 Y0.936
X0.095 Y0.9328
X0.0902 Y0.9292
X0.078 Y0.9194
X0.0666 Y0.9094
X0.0454 Y0.8878
X0.0356 Y0.876
X0.0264 Y0.8636
X0.0174 Y0.8506
X0.009 Y0.8368
X-0.0008 Y0.8184
X-0.0098 Y0.7986
X-0.0178 Y0.7776
G0 X-0.2498 Y0.686
G1 X-0.2526 Y0.69 F15
X-0.2564 Y0.6938
X-0.2608 Y0.697
X-0.2652 Y0.699
X-0.2708 Y0.7002
X-0.2776 Y0.7006
X-0.2844 Y0.7002
X-0.2896 Y0.6992
X-0.2946 Y0.697
X-0.299 Y0.694
X-0.3032 Y0.6902
X-0.307 Y0.6858
X-0.3132 Y0.6748
X-0.3178 Y0.6614
X-0.3196 Y0.6508
X-0.32 Y0.6444
Y0.6356
Y0.627
X-0.3194 Y0.6196
X-0.3186 Y0.613
X-0.3172 Y0.607
X-0.3128 Y0.5964
X-0.3058 Y0.5862
X-0.2998 Y0.5794
X-0.2948 Y0.5754
X-0.2908 Y0.5742
X-0.2874 Y0.5756
X-0.2854 Y0.5784
X-0.285 Y0.5822
X-0.2858 Y0.5866
X-0.2878 Y0.591
X-0.2898 Y0.595
X-0.291 Y0.6
X-0.2916 Y0.6058
Y0.6124
X-0.2908 Y0.62
X-0.2894 Y0.6284
X-0.2872 Y0.6376
X-0.2842 Y0.6476
X-0.282 Y0.654
X-0.2796 Y0.6586
X-0.2768 Y0.6618
X-0.2728 Y0.6642
X-0.269 Y0.6652
X-0.265 Y0.6642
X-0.2614 Y0.6614
X-0.2584 Y0.6572
X-0.2578 Y0.6556
X-0.2576 Y0.6524
X-0.2572 Y0.6438
X-0.256 Y0.6274
X-0.2542 Y0.6194
X-0.2518 Y0.6112
X-0.2464 Y0.5966
X-0.244 Y0.5914
X-0.2432 Y0.5898
X-0.2426 Y0.5892
X-0.2414 Y0.591
X-0.2402 Y0.5952
X-0.2392 Y0.6064
X-0.2394 Y0.6104
X-0.24 Y0.6156
X-0.2424 Y0.6272
X-0.2448 Y0.6388
X-0.2464 Y0.6498
X-0.2478 Y0.6716
Y0.677
X-0.2482 Y0.6808
X-0.2498 Y0.686
G0 X-0.3262 Y0.6812
G1 X-0.3264 Y0.6772 F15
X-0.3274 Y0.6742
X-0.3286 Y0.6706
X-0.3306 Y0.665
X-0.3328 Y0.6604
X-0.3378 Y0.654
X-0.3404 Y0.6516
X-0.35 Y0.6554
X-0.3684 Y0.6612
X-0.3868 Y0.6644
X-0.4062 Y0.6654
X-0.4166 Y0.6648
X-0.4374 Y0.6628
X-0.4456 Y0.6624
X-0.4516
X-0.4536 Y0.6628
X-0.4548 Y0.6632
X-0.4546 Y0.6638
X-0.4526 Y0.665
X-0.4486 Y0.6668
X-0.4432 Y0.669
X-0.438 Y0.671
X-0.4338 Y0.6726
X-0.4312 Y0.6738
X-0.43 Y0.6744
X-0.4312 Y0.6748
X-0.434
X-0.4382 Y0.6746
X-0.4434 Y0.6744
X-0.4542 Y0.6734
X-0.4592 Y0.6728
X-0.4628 Y0.672
X-0.4792 Y0.6678
X-0.4956 Y0.6614
X-0.5122 Y0.653
X-0.529 Y0.6426
X-0.5464 Y0.6298
X-0.564 Y0.615
X-0.5822 Y0.5978
X-0.601 Y0.5782
X-0.6072 Y0.5716
X-0.6126 Y0.5658
X-0.6164 Y0.5614
X-0.6176 Y0.56
X-0.6182 Y0.5592
X-0.6176
X-0.6146 Y0.5606
X-0.6098 Y0.5632
X-0.5976 Y0.5706
X-0.5926 Y0.5736
X-0.589 Y0.5756
X-0.5876 Y0.5762
X-0.5878 Y0.5756
X-0.589 Y0.574
X-0.5926 Y0.5692
X-0.6018 Y0.557
X-0.61 Y0.5444
X-0.6168 Y0.532
X-0.6222 Y0.5198
X-0.6258 Y0.5098
X-0.6288 Y0.4988
X-0.6316 Y0.4856
X-0.6332 Y0.4776
X-0.6348 Y0.4684
X-0.6376 Y0.4534
X-0.6408 Y0.4402
X-0.644 Y0.4288
X-0.6482 Y0.4176
X-0.6484 Y0.4164
X-0.6476 Y0.4172
X-0.6456 Y0.4194
X-0.643 Y0.4228
X-0.6398 Y0.4268
X-0.6362 Y0.4314
X-0.6336 Y0.4344
X-0.632 Y0.436
X-0.6312
X-0.6308 Y0.4346
X-0.6302 Y0.432
X-0.6292 Y0.4246
X-0.6264 Y0.4066
X-0.623 Y0.3904
X-0.6192 Y0.3766
X-0.6122 Y0.3582
X-0.6106 Y0.3508
X-0.6096 Y0.342
X-0.6092 Y0.3312
X-0.6094 Y0.3234
X-0.6098 Y0.3166
X-0.6118 Y0.3054
X-0.616 Y0.2956
X-0.619 Y0.2906
X-0.6228 Y0.2852
X-0.6256 Y0.2812
X-0.6286 Y0.2766
X-0.6348 Y0.2668
X-0.641 Y0.2564
X-0.6412 Y0.2636
X-0.6424 Y0.2734
X-0.6452 Y0.285
X-0.6496 Y0.2982
X-0.6556 Y0.3128
X-0.663 Y0.3288
X-0.6718 Y0.3456
X-0.682 Y0.3634
X-0.6934 Y0.382
X-0.7018 Y0.396
X-0.7092 Y0.4098
X-0.7158 Y0.4234
X-0.7214 Y0.4368
X-0.726 Y0.4502
X-0.7296 Y0.4632
X-0.7324 Y0.4762
X-0.734 Y0.4888
X-0.7348 Y0.5014
X-0.7346 Y0.5136
X-0.7334 Y0.5256
X-0.7314 Y0.5374
X-0.7282 Y0.549
X-0.7242 Y0.5602
X-0.7192 Y0.5712
X-0.7132 Y0.582
X-0.7098 Y0.5876
X-0.709 Y0.5894
X-0.7086 Y0.5902
X-0.71 Y0.5898
X-0.7126 Y0.5888
X-0.7154 Y0.5878
X-0.7166 Y0.588
X-0.7162 Y0.5892
X-0.715 Y0.5914
X-0.7108 Y0.5978
X-0.6998 Y0.6138
X-0.6842 Y0.6326
X-0.6668 Y0.6506
X-0.6478 Y0.667
X-0.6278 Y0.6818
X-0.6072 Y0.6948
X-0.5864 Y0.7054
X-0.5656 Y0.7138
X-0.5454 Y0.7194
X-0.5382 Y0.7208
X-0.5322 Y0.7214
X-0.5302
X-0.529
X-0.5288 Y0.721
X-0.5296 Y0.7206
X-0.5316 Y0.7198
X-0.5404 Y0.716
X-0.5462 Y0.7136
X-0.5602 Y0.7078
X-0.5734 Y0.7018
X-0.5972 Y0.689
X-0.619 Y0.675
X-0.6394 Y0.6592
X-0.6424 Y0.6568
X-0.646 Y0.6534
X-0.655 Y0.645
X-0.6758 Y0.6248
X-0.6856 Y0.615
X-0.6898 Y0.6106
X-0.6936 Y0.6068
X-0.6964 Y0.6036
X-0.6986 Y0.6014
X-0.6996 Y0.6
Y0.5996
X-0.6978 Y0.6004
X-0.6946 Y0.6018
X-0.6864 Y0.606
X-0.6786 Y0.6096
X-0.6762 Y0.6106
X-0.6752 Y0.6108
X-0.6754 Y0.6102
X-0.676 Y0.6088
X-0.6802 Y0.6014
X-0.6828 Y0.597
X-0.6882 Y0.5864
X-0.6938 Y0.5748
X-0.6984 Y0.5646
X-0.7074 Y0.54
X-0.7146 Y0.5154
X-0.7172 Y0.5038
X-0.719 Y0.4928
X-0.7202 Y0.4828
X-0.7208 Y0.4738
Y0.4638
X-0.7138 Y0.4778
X-0.7086 Y0.4884
X-0.7068 Y0.4924
X-0.7058 Y0.4944
X-0.7052 Y0.495
X-0.7048 Y0.4932
X-0.7046 Y0.4912
X-0.7044 Y0.4884
X-0.7042 Y0.4846
X-0.704 Y0.48
X-0.7028 Y0.4626
X-0.7002 Y0.4464
X-0.6962 Y0.4298
X-0.6906 Y0.4116
X-0.6858 Y0.3988
X-0.6804 Y0.3858
X-0.677 Y0.3782
X-0.6728 Y0.3692
X-0.6676 Y0.3584
X-0.6548 Y0.332
X-0.6492 Y0.3202
X-0.647 Y0.3154
X-0.645 Y0.3114
X-0.6438 Y0.3084
X-0.643 Y0.3068
X-0.6414 Y0.3032
X-0.64 Y0.3018
X-0.6396 Y0.3024
Y0.304
X-0.64 Y0.3094
X-0.6432 Y0.324
X-0.6454 Y0.3314
X-0.6488 Y0.3404
X-0.651 Y0.346
X-0.6538 Y0.353
X-0.6572 Y0.3612
X-0.6614 Y0.371
X-0.666 Y0.3828
X-0.6702 Y0.394
X-0.6764 Y0.4148
X-0.6802 Y0.4348
X-0.6818 Y0.455
Y0.4704
X-0.6802 Y0.4852
X-0.6774 Y0.4992
X-0.6728 Y0.513
X-0.6668 Y0.5268
X-0.6588 Y0.5406
X-0.649 Y0.5548
X-0.6372 Y0.5698
X-0.636 Y0.5716
X-0.6364 Y0.5718
X-0.6372 Y0.5714
X-0.639 Y0.5704
X-0.6418 Y0.5688
X-0.6456 Y0.5664
X-0.6506 Y0.5634
X-0.657 Y0.5594
X-0.6622 Y0.5562
X-0.666 Y0.554
X-0.6674 Y0.5534
X-0.667 Y0.555
X-0.6654 Y0.5588
X-0.6628 Y0.564
X-0.6596 Y0.5704
X-0.6522 Y0.5838
X-0.6488 Y0.5898
X-0.646 Y0.5944
X-0.6388 Y0.605
X-0.6316 Y0.6142
X-0.6236 Y0.623
X-0.6144 Y0.6326
X-0.6042 Y0.6418
X-0.5938 Y0.6502
X-0.583 Y0.658
X-0.5716 Y0.665
X-0.5592 Y0.6716
X-0.5456 Y0.6778
X-0.5306 Y0.6838
X-0.5138 Y0.69
X-0.508 Y0.692
X-0.5032 Y0.6938
X-0.5 Y0.695
X-0.4988 Y0.6958
X-0.5002 Y0.6964
X-0.5038 Y0.6966
X-0.5058
X-0.5072 Y0.6968
X-0.5076 Y0.6972
X-0.5072 Y0.6976
X-0.5058 Y0.6984
X-0.5036 Y0.6992
X-0.5004 Y0.7004
X-0.4962 Y0.7016
X-0.474 Y0.7074
X-0.4504 Y0.711
X-0.4268 Y0.7128
X-0.4156
X-0.4048 Y0.7122
X-0.3932 Y0.711
X-0.3824 Y0.7094
X-0.3724 Y0.7072
X-0.363 Y0.7044
X-0.3542 Y0.7012
X-0.3464 Y0.6974
X-0.339 Y0.693
X-0.3324 Y0.6882
X-0.328 Y0.6844
X-0.3262 Y0.6812
G0 X-0.4356 Y0.4134
G1 X-0.4266 Y0.4102 F15
X-0.4202 Y0.4064
X-0.4146 Y0.4016
X-0.4094 Y0.3956
X-0.4052 Y0.3888
X-0.4016 Y0.3814
X-0.3988 Y0.3732
X-0.397 Y0.3644
X-0.396 Y0.3552
Y0.342
X-0.3978 Y0.3296
X-0.401 Y0.3174
X-0.4062 Y0.3048
X-0.4106 Y0.2958
X-0.419 Y0.2984
X-0.4276 Y0.3002
X-0.4372 Y0.3014
X-0.4464 Y0.3016
X-0.4542 Y0.3008
X-0.467 Y0.2964
X-0.4716 Y0.2946
X-0.4732 Y0.2942
X-0.4742
X-0.4752 Y0.2954
X-0.4766 Y0.298
X-0.4802 Y0.3056
X-0.4838 Y0.3146
X-0.4864 Y0.3226
X-0.4884 Y0.3332
X-0.489 Y0.345
X-0.4884 Y0.3568
X-0.4864 Y0.3668
X-0.4822 Y0.3788
X-0.4766 Y0.3896
X-0.4696 Y0.3988
X-0.4618 Y0.406
X-0.453 Y0.4114
X-0.4444 Y0.4138
X-0.4356 Y0.4134
G0 X-0.4728 Y0.3636
G1 X-0.4762 Y0.356 F15
X-0.4768 Y0.3528
X-0.4766 Y0.351
X-0.476 Y0.3512
X-0.4748 Y0.3518
X-0.4714 Y0.3542
X-0.4652 Y0.3586
X-0.4598 Y0.3608
X-0.4552 Y0.3606
X-0.4512 Y0.3586
X-0.4484 Y0.3552
X-0.4468 Y0.3508
X-0.4462 Y0.346
X-0.4468 Y0.3414
X-0.4484 Y0.337
X-0.4508 Y0.3332
X-0.4538 Y0.3308
X-0.4576 Y0.33
X-0.4634 Y0.331
X-0.4666 Y0.3328
X-0.4704 Y0.3358
X-0.4748 Y0.3394
Y0.3352
X-0.4744 Y0.332
X-0.4728 Y0.329
X-0.4676 Y0.3234
X-0.46 Y0.3194
X-0.451 Y0.3176
X-0.4456 Y0.3178
X-0.4412 Y0.3188
X-0.4376 Y0.3212
X-0.434 Y0.3248
X-0.4316 Y0.329
X-0.4296 Y0.3342
X-0.428 Y0.3464
X-0.4292 Y0.3588
X-0.431 Y0.3644
X-0.4334 Y0.369
X-0.4378 Y0.3732
X-0.4438 Y0.376
X-0.4508 Y0.3768
X-0.4576 Y0.3756
X-0.462 Y0.3734
X-0.4662 Y0.3706
X-0.47 Y0.3672
X-0.4728 Y0.3636
G0 X-0.3928 Y0.183
G1 X-0.3848 Y0.1856 F15
X-0.3776 Y0.186
X-0.3714 Y0.1846
X-0.3658 Y0.1808
X-0.362 Y0.1744
X-0.3598 Y0.1654
X-0.3596 Y0.154
X-0.3604 Y0.1446
X-0.3624 Y0.1354
X-0.3658 Y0.1262
X-0.3704 Y0.116
X-0.3748 Y0.106
X-0.379 Y0.0946
X-0.3824 Y0.083
X-0.3848 Y0.072
X-0.3858 Y0.0656
X-0.3864 Y0.0576
X-0.387 Y0.0388
X-0.3864 Y0.0196
X-0.3858 Y0.0112
X-0.385 Y0.0044
X-0.3832 Y-0.005
X-0.381 Y-0.0154
X-0.3788 Y-0.0242
X-0.378 Y-0.027
X-0.3774 Y-0.0286
X-0.3768
X-0.3756 Y-0.028
X-0.3718 Y-0.0258
X-0.366 Y-0.0224
X-0.3604 Y-0.0198
X-0.3546 Y-0.0182
X-0.3492 Y-0.0174
X-0.3442
X-0.3394 Y-0.0182
X-0.335 Y-0.02
X-0.3312 Y-0.0228
X-0.3272 Y-0.0264
X-0.326 Y-0.0208
X-0.3248 Y-0.0168
X-0.3234 Y-0.0134
X-0.322 Y-0.0114
X-0.3208 Y-0.011
X-0.3198 Y-0.012
X-0.3184 Y-0.0146
X-0.3162 Y-0.0186
X-0.314 Y-0.0232
X-0.311 Y-0.029
X-0.3084 Y-0.034
X-0.3036 Y-0.0422
X-0.2984 Y-0.0496
X-0.2918 Y-0.058
X-0.2826 Y-0.0704
X-0.2762 Y-0.0826
X-0.2726 Y-0.095
X-0.2712 Y-0.1076
X-0.2716 Y-0.1154
X-0.273 Y-0.1214
X-0.2758 Y-0.1266
X-0.28 Y-0.1314
X-0.2854 Y-0.1358
X-0.2916 Y-0.1384
X-0.2994 Y-0.1398
X-0.3042 Y-0.1402
X-0.3098 Y-0.1404
X-0.3236
X-0.3312 Y-0.1474
X-0.3376 Y-0.1528
X-0.344 Y-0.1574
X-0.3506 Y-0.1608
X-0.357 Y-0.1632
X-0.3626 Y-0.1644
X-0.3688 Y-0.1648
X-0.375 Y-0.1646
X-0.3798 Y-0.1638
X-0.3816 Y-0.1634
X-0.382 Y-0.164
X-0.3804 Y-0.166
X-0.3788 Y-0.1678
X-0.3766 Y-0.1702
X-0.3636 Y-0.1852
X-0.3508 Y-0.2026
X-0.3386 Y-0.2218
X-0.3268 Y-0.2426
X-0.3162 Y-0.2644
X-0.3064 Y-0.2866
X-0.2982 Y-0.309
X-0.2916 Y-0.331
X-0.2882 Y-0.3448
X-0.2858 Y-0.3578
X-0.2846 Y-0.3702
X-0.284 Y-0.3826
Y-0.3978
X-0.2796 Y-0.385
X-0.278 Y-0.38
X-0.2764 Y-0.3758
X-0.2754 Y-0.373
X-0.2748 Y-0.3718
X-0.274 Y-0.3726
X-0.2722 Y-0.3756
X-0.27 Y-0.3802
X-0.2672 Y-0.3858
X-0.2614 Y-0.3986
X-0.2588 Y-0.4046
X-0.2568 Y-0.4098
X-0.2514 Y-0.4258
X-0.2478 Y-0.442
X-0.2452 Y-0.4598
X-0.2444 Y-0.4698
X-0.2438 Y-0.4808
X-0.2434 Y-0.4884
X-0.243 Y-0.4948
X-0.2426 Y-0.4992
X-0.2424 Y-0.5008
X-0.2418 Y-0.4996
X-0.2406 Y-0.4958
X-0.2386 Y-0.4904
X-0.2364 Y-0.4836
X-0.2342 Y-0.4768
X-0.2322 Y-0.4712
X-0.2306 Y-0.4674
X-0.2296 Y-0.4662
X-0.2288 Y-0.467
X-0.2276 Y-0.4688
X-0.2244 Y-0.4744
X-0.221 Y-0.4814
X-0.2186 Y-0.4878
X-0.2168 Y-0.4944
X-0.2164 Y-0.5012
X-0.2168 Y-0.5076
X-0.2184 Y-0.5132
X-0.2222 Y-0.5194
X-0.2278 Y-0.5248
X-0.2352 Y-0.5296
X-0.2442 Y-0.5336
X-0.2544 Y-0.5368
X-0.2658 Y-0.5392
X-0.2786 Y-0.5406
X-0.292 Y-0.5412
X-0.3048 Y-0.5404
X-0.318 Y-0.5384
X-0.3314 Y-0.535
X-0.345 Y-0.5302
X-0.3588 Y-0.5242
X-0.3726 Y-0.517
X-0.3864 Y-0.5086
X-0.3998 Y-0.499
X-0.4052 Y-0.4948
X-0.411 Y-0.4898
X-0.4234 Y-0.478
X-0.4358 Y-0.4656
X-0.4412 Y-0.4596
X-0.446 Y-0.454
X-0.4562 Y-0.4408
X-0.4658 Y-0.4268
X-0.4746 Y-0.4124
X-0.4826 Y-0.3974
X-0.4898 Y-0.3818
X-0.4964 Y-0.3656
X-0.5022 Y-0.349
X-0.5072 Y-0.3318
X-0.5116 Y-0.314
X-0.515 Y-0.296
X-0.5178 Y-0.2774
X-0.5198 Y-0.2584
X-0.521 Y-0.239
X-0.5212 Y-0.2194
X-0.5208 Y-0.1994
X-0.5196 Y-0.179
X-0.519 Y-0.172
X-0.5186 Y-0.1668
X-0.518 Y-0.1632
X-0.5174 Y-0.1608
X-0.515 Y-0.1586
X-0.5102 Y-0.1572
X-0.4938 Y-0.1518
X-0.477 Y-0.1436
X-0.4602 Y-0.1322
X-0.4432 Y-0.118
X-0.4392 Y-0.1142
X-0.4372 Y-0.1118
X-0.4366 Y-0.11
X-0.4368 Y-0.1078
X-0.438 Y-0.1042
X-0.4404 Y-0.0998
X-0.4478 Y-0.0892
X-0.4568 Y-0.0788
X-0.4614 Y-0.0744
X-0.4656 Y-0.0712
X-0.4704 Y-0.0684
X-0.4746 Y-0.0672
X-0.4788 Y-0.0674
X-0.4844 Y-0.0692
X-0.4898 Y-0.0708
X-0.4942
X-0.4974 Y-0.0694
X-0.4994 Y-0.0664
X-0.5002 Y-0.0626
X-0.5 Y-0.0604
X-0.4994 Y-0.0572
X-0.4974 Y-0.0512
X-0.4958 Y-0.0478
X-0.4936 Y-0.0434
X-0.4906 Y-0.0378
X-0.4864 Y-0.0306
X-0.4808 Y-0.0214
X-0.4738 Y-0.0096
X-0.4642 Y0.0064
X-0.4562 Y0.0202
X-0.4496 Y0.0326
X-0.444 Y0.0436
X-0.4394 Y0.0536
X-0.4356 Y0.0628
X-0.43 Y0.0804
X-0.428 Y0.091
X-0.4276 Y0.097
X-0.4274 Y0.1054
X-0.4276 Y0.1116
X-0.4278 Y0.1168
X-0.429 Y0.1252
X-0.4316 Y0.1328
X-0.436 Y0.1406
X-0.4398 Y0.1468
X-0.4336 Y0.153
X-0.4262 Y0.16
X-0.4174 Y0.1674
X-0.4086 Y0.174
X-0.4048 Y0.1768
X-0.4016 Y0.1788
X-0.3928 Y0.183
G0 X-0.3504 Y-0.0336
G1 X-0.3546 Y-0.0346 F15
X-0.3578 Y-0.0354
X-0.3628 Y-0.0372
X-0.3664 Y-0.0392
X-0.3702 Y-0.0426
X-0.3728 Y-0.0448
X-0.3748 Y-0.0462
X-0.3786 Y-0.0472
X-0.3812 Y-0.0474
X-0.3822 Y-0.0476
X-0.3816 Y-0.0486
X-0.3802 Y-0.051
X-0.378 Y-0.0542
X-0.3754 Y-0.0582
X-0.37 Y-0.0666
X-0.3654 Y-0.0748
X-0.3576 Y-0.0922
X-0.3544 Y-0.1002
X-0.3512 Y-0.1064
X-0.3472 Y-0.1118
X-0.3422 Y-0.1172
X-0.3332 Y-0.1248
X-0.3238 Y-0.13
X-0.3148 Y-0.1328
X-0.3062 Y-0.1332
X-0.3006 Y-0.1318
X-0.2956 Y-0.1298
X-0.291 Y-0.127
X-0.2872 Y-0.1234
X-0.284 Y-0.1192
X-0.2816 Y-0.1142
X-0.28 Y-0.1088
X-0.2792 Y-0.1028
X-0.2794 Y-0.095
X-0.281 Y-0.088
X-0.2828 Y-0.0842
X-0.2854 Y-0.0796
X-0.2886 Y-0.0744
X-0.2928 Y-0.0678
X-0.2976 Y-0.0606
X-0.3016 Y-0.0546
X-0.3052 Y-0.0496
X-0.3084 Y-0.0454
X-0.3138 Y-0.0394
X-0.3188 Y-0.0356
X-0.3218 Y-0.0338
X-0.3246 Y-0.0328
X-0.328 Y-0.0322
X-0.3326 Y-0.0318
X-0.3412 Y-0.0322
X-0.3504 Y-0.0336
G0 X-0.3872 Y-0.054
G1 X-0.3956 Y-0.046 F15
X-0.4052 Y-0.0392
X-0.4154 Y-0.0334
X-0.426 Y-0.0292
X-0.4364 Y-0.0264
X-0.4462 Y-0.0254
X-0.4554 Y-0.0264
X-0.4602 Y-0.028
X-0.4648 Y-0.0304
X-0.473 Y-0.0374
X-0.4796 Y-0.0466
X-0.484 Y-0.0578
X-0.485 Y-0.0614
X-0.4786
X-0.473 Y-0.0618
X-0.4672 Y-0.0636
X-0.4618 Y-0.0666
X-0.4564 Y-0.0706
X-0.4538 Y-0.0732
X-0.4502 Y-0.0774
X-0.4416 Y-0.0888
X-0.4348 Y-0.0978
X-0.4282 Y-0.1064
X-0.424 Y-0.1114
X-0.4188 Y-0.1178
X-0.412 Y-0.1256
X-0.4036 Y-0.1356
X-0.3996 Y-0.1404
X-0.3962 Y-0.1442
X-0.3936 Y-0.147
X-0.3914 Y-0.1494
X-0.3874 Y-0.1524
X-0.3834 Y-0.1546
X-0.3784 Y-0.1566
X-0.3734 Y-0.1578
X-0.3682 Y-0.1582
X-0.3632 Y-0.1578
X-0.3532 Y-0.1544
X-0.3486 Y-0.1516
X-0.3442 Y-0.1482
X-0.3416 Y-0.1458
X-0.3398 Y-0.1438
X-0.3382 Y-0.1408
X-0.3392 Y-0.138
X-0.3428 Y-0.1338
X-0.3476 Y-0.1274
X-0.3528 Y-0.1188
X-0.3584 Y-0.108
X-0.364 Y-0.095
X-0.3684 Y-0.0848
X-0.3724 Y-0.0762
X-0.3764 Y-0.0688
X-0.38 Y-0.0628
X-0.3872 Y-0.054
G0 X-0.668 Y0.1272
G1 X-0.664 Y0.1344 F15
X-0.6614 Y0.1432
X-0.6606 Y0.1496
X-0.6612 Y0.1552
X-0.6634 Y0.1602
X-0.667 Y0.1646
X-0.6728 Y0.169
X-0.68 Y0.1712
X-0.688 Y0.1714
X-0.6966 Y0.1696
X-0.7018 Y0.1674
X-0.7058 Y0.1646
X-0.709 Y0.1606
X-0.712 Y0.1552
X-0.7138 Y0.1502
X-0.7144 Y0.1454
X-0.7142 Y0.1406
X-0.7128 Y0.136
X-0.7106 Y0.1318
X-0.7072 Y0.1278
X-0.703 Y0.1242
X-0.698 Y0.1212
X-0.693 Y0.119
X-0.6888 Y0.1178
X-0.6844
X-0.6798 Y0.1188
X-0.6734 Y0.122
X-0.668 Y0.1272
G0 X-0.6994 Y0.1598
G1 X-0.6952 Y0.162 F15
X-0.6906 Y0.1636
X-0.6854 Y0.1642
X-0.6802 Y0.164
X-0.676 Y0.1628
X-0.6714 Y0.159
X-0.6688 Y0.154
X-0.6686 Y0.1486
X-0.671 Y0.1438
X-0.6734 Y0.141
X-0.6752 Y0.146
X-0.6776 Y0.1502
X-0.6808 Y0.1534
X-0.6854 Y0.1558
X-0.6916 Y0.1578
X-0.6994 Y0.1598
M5
M30
