(Skunk)
(T1 D=0.5 CR=0. TAPER=45deg - ZMIN=0. - chamfer mill)
G90

(Trace1)
S5000 M3
G90
G0 X0.0628 Y-0.1224
G1 X0.0692 Y-0.1167 F15
X0.0751 Y-0.1112
X0.0806 Y-0.1058
X0.0857 Y-0.1006
X0.0904 Y-0.0955
X0.0947 Y-0.0906
X0.1022 Y-0.0811
X0.109 Y-0.0719
X0.1114 Y-0.0687
X0.1133 Y-0.0662
X0.1147 Y-0.0643
X0.1157 Y-0.063
X0.1165 Y-0.0622
X0.1169 Y-0.0617
X0.118 Y-0.0606
X0.1177 Y-0.0702
X0.1211 Y-0.0649
X0.1259 Y-0.0571
X0.1302 Y-0.0495
X0.1341 Y-0.0417
X0.1378 Y-0.0335
X0.1414 Y-0.0244
X0.1451 Y-0.0143
X0.147 Y-0.0087
X0.149 Y-0.0026
X0.151 Y0.0038
X0.1532 Y0.0108
X0.1549 Y0.0161
X0.1562 Y0.0206
X0.1572 Y0.0236
X0.1575 Y0.0244
X0.1576 Y0.0247
X0.1577 Y0.0245
X0.1578 Y0.0235
X0.1581 Y0.0203
X0.1589 Y0.0123
X0.1592 Y0.009
X0.1601 Y0.0117
X0.1612 Y0.0163
X0.162 Y0.0218
X0.1625 Y0.0282
X0.1627 Y0.0355
X0.1624 Y0.0445
X0.1617 Y0.0541
X0.1604 Y0.0643
X0.1585 Y0.0753
X0.156 Y0.0874
X0.1529 Y0.1007
X0.1491 Y0.1152
X0.147 Y0.123
X0.143 Y0.1371
X0.1417 Y0.1418
X0.1408 Y0.145
X0.1405 Y0.1459
Y0.1462
X0.1409 Y0.1457
X0.1419 Y0.1443
X0.1433 Y0.1423
X0.1451 Y0.1398
X0.1468 Y0.1375
X0.1482 Y0.1356
X0.1492 Y0.1345
X0.1495 Y0.1344
Y0.135
X0.1492 Y0.1363
X0.1489 Y0.1382
X0.1478 Y0.1438
X0.1471 Y0.1472
X0.144 Y0.1628
X0.1426 Y0.1702
X0.1414 Y0.177
X0.1403 Y0.1832
X0.1393 Y0.1889
X0.1384 Y0.1942
X0.1371 Y0.2038
X0.1359 Y0.2147
X0.1355 Y0.2198
X0.1351 Y0.2244
X0.135 Y0.2282
Y0.2312
X0.1351 Y0.233
X0.1354 Y0.2335
X0.1359 Y0.233
X0.1368 Y0.2318
X0.1394 Y0.228
X0.1408 Y0.226
X0.142 Y0.2244
X0.1428 Y0.2233
X0.1431 Y0.2229
X0.143 Y0.2234
X0.1425 Y0.2248
X0.1419 Y0.2267
X0.1412 Y0.2291
X0.1387 Y0.2372
X0.1366 Y0.2455
X0.1349 Y0.2538
X0.1337 Y0.262
X0.1333 Y0.2651
X0.1331 Y0.2687
X0.1329 Y0.2765
X0.1331 Y0.2839
X0.1333 Y0.2872
X0.1337 Y0.29
X0.1355 Y0.2987
X0.1383 Y0.3065
X0.142 Y0.3136
X0.1467 Y0.3197
X0.1523 Y0.3251
X0.1588 Y0.3295
X0.1662 Y0.3331
X0.1744 Y0.3358
X0.1765 Y0.3363
X0.178 Y0.3366
X0.179 Y0.3368
X0.1794 Y0.3367
Y0.3365
X0.1789 Y0.336
X0.1779 Y0.3354
X0.1764 Y0.3346
X0.1703 Y0.331
X0.1648 Y0.3273
X0.1602 Y0.3235
X0.1567 Y0.32
X0.1532 Y0.3151
X0.152 Y0.313
X0.1516 Y0.3117
X0.1519 Y0.311
X0.1525 Y0.3098
X0.1547 Y0.3066
X0.1607 Y0.2973
X0.1634 Y0.292
X0.1659 Y0.2863
X0.1683 Y0.2799
X0.1707 Y0.2728
X0.173 Y0.2649
X0.1753 Y0.2559
X0.1765 Y0.2511
X0.1766 Y0.2571
X0.1768 Y0.2617
X0.1769 Y0.2634
X0.1771 Y0.2644
X0.1773 Y0.265
X0.1776 Y0.2652
X0.178 Y0.2647
X0.1788 Y0.2635
X0.1798 Y0.2622
X0.1813 Y0.2604
X0.1855 Y0.2558
X0.1898 Y0.2507
X0.1916 Y0.2484
X0.1928 Y0.2465
X0.1937 Y0.2448
X0.1947 Y0.2426
X0.197 Y0.2371
X0.1995 Y0.2307
X0.2019 Y0.2238
X0.2039 Y0.2178
X0.2046 Y0.2215
X0.2051 Y0.2246
X0.2055 Y0.2268
X0.2059 Y0.228
X0.2062 Y0.2285
X0.207 Y0.2281
X0.2086 Y0.2271
X0.2106 Y0.2255
X0.213 Y0.2236
X0.218 Y0.2194
X0.2202 Y0.2174
X0.2219 Y0.2157
X0.2269 Y0.2097
X0.2309 Y0.2033
X0.2337 Y0.1966
X0.2354 Y0.1894
X0.2358 Y0.1861
X0.236 Y0.1825
X0.2357 Y0.1743
X0.2347 Y0.1656
X0.2329 Y0.1573
X0.2323 Y0.1546
X0.2322 Y0.1538
X0.2323 Y0.1535
X0.2334 Y0.154
X0.2353 Y0.1553
X0.2398 Y0.1592
X0.2446 Y0.1644
X0.2471 Y0.1677
X0.2498 Y0.1715
X0.2527 Y0.1761
X0.256 Y0.1814
X0.2597 Y0.1878
X0.2639 Y0.1952
X0.2668 Y0.2004
X0.2694 Y0.205
X0.2717 Y0.209
X0.2736 Y0.2122
X0.2752 Y0.2148
X0.2763 Y0.2166
X0.2771 Y0.2177
X0.2775 Y0.2179
Y0.2175
Y0.2164
X0.2771 Y0.2131
X0.2769 Y0.2109
X0.2768 Y0.2093
X0.2767 Y0.2083
X0.2768 Y0.208
X0.2771 Y0.2082
X0.2775 Y0.2091
X0.2782 Y0.2106
X0.279 Y0.2126
X0.2801 Y0.2151
X0.2814 Y0.2181
X0.2831 Y0.2217
X0.2851 Y0.2261
X0.2876 Y0.2314
X0.2907 Y0.2378
X0.2943 Y0.2453
X0.3019 Y0.2611
X0.3048 Y0.2672
X0.306 Y0.2698
X0.3069 Y0.272
X0.3077 Y0.2737
X0.3093 Y0.2777
X0.3097 Y0.2787
X0.31 Y0.2792
X0.3101 Y0.279
X0.3102 Y0.2785
X0.3106 Y0.2764
X0.311 Y0.2731
X0.3115 Y0.2691
X0.312 Y0.2651
X0.3124 Y0.2618
X0.3127 Y0.2595
X0.3129 Y0.2587
X0.3131 Y0.2593
X0.3137 Y0.2608
X0.3144 Y0.2631
X0.3154 Y0.2659
X0.3183 Y0.2759
X0.321 Y0.2869
X0.3233 Y0.2986
X0.3252 Y0.311
X0.3257 Y0.3157
X0.3261 Y0.3211
X0.3264 Y0.333
Y0.3387
X0.3262 Y0.3439
X0.3259 Y0.3482
X0.3255 Y0.3511
X0.3249 Y0.3538
X0.3248 Y0.3546
Y0.355
X0.3251 Y0.3547
X0.3256 Y0.354
X0.3274 Y0.3516
X0.329 Y0.3493
X0.3296 Y0.3488
X0.3297
Y0.3496
X0.3295 Y0.3513
X0.329 Y0.3564
X0.3274 Y0.3665
X0.3252 Y0.3767
X0.3222 Y0.3868
X0.3187 Y0.3968
X0.3145 Y0.4067
X0.3097 Y0.4164
X0.3043 Y0.4258
X0.2983 Y0.4348
X0.2932 Y0.4418
X0.2878 Y0.4484
X0.2822 Y0.4546
X0.2763 Y0.4605
X0.2702 Y0.466
X0.2638 Y0.4711
X0.2572 Y0.4759
X0.2505 Y0.4803
X0.2435 Y0.4843
X0.2363 Y0.4879
X0.2289 Y0.4912
X0.2214 Y0.494
X0.2137 Y0.4964
X0.2058 Y0.4984
X0.1978 Y0.5
X0.1896 Y0.5011
X0.1866 Y0.5014
X0.1826 Y0.5016
X0.1779 Y0.5018
X0.1728
X0.1626
X0.1581 Y0.5017
X0.1545 Y0.5016
X0.1516 Y0.5013
X0.1481 Y0.501
X0.14 Y0.5001
X0.132 Y0.499
X0.1285 Y0.4985
X0.1256 Y0.498
X0.1163 Y0.4961
X0.1072 Y0.4939
X0.0984 Y0.4913
X0.0898 Y0.4884
X0.0816 Y0.4853
X0.0737 Y0.4818
X0.0662 Y0.4781
X0.0591 Y0.4741
X0.0563 Y0.4724
X0.0489 Y0.4749
X0.0426 Y0.4769
X0.0367 Y0.4786
X0.0249 Y0.4812
X0.0174 Y0.4822
X0.0127 Y0.4824
X0.0097
X0.0061
X0.0023
X-0.0007 Y0.4823
X-0.0032
X-0.0053 Y0.4822
X-0.0119 Y0.4812
X-0.0218 Y0.4785
X-0.0311 Y0.4748
X-0.04 Y0.4701
X-0.0485 Y0.4642
X-0.0568 Y0.4572
X-0.0648 Y0.4489
X-0.0727 Y0.4393
X-0.0806 Y0.4282
X-0.0848 Y0.4219
X-0.089 Y0.4152
X-0.0914 Y0.4113
X-0.0941 Y0.4067
X-0.0974 Y0.4012
X-0.1012 Y0.3946
X-0.1064 Y0.3861
X-0.1112 Y0.3783
X-0.1134 Y0.3748
X-0.1154 Y0.3718
X-0.1172 Y0.3692
X-0.1187 Y0.367
X-0.1205 Y0.3647
X-0.1163 Y0.3677
X-0.1083 Y0.3733
X-0.1045 Y0.376
X-0.1048 Y0.3735
X-0.1056 Y0.3649
X-0.106 Y0.3564
X-0.1059 Y0.3479
X-0.1053 Y0.3395
X-0.1043 Y0.3312
X-0.1028 Y0.3229
X-0.1008 Y0.3147
X-0.0984 Y0.3066
X-0.0942 Y0.2951
X-0.0917 Y0.2893
X-0.0889 Y0.2831
X-0.0856 Y0.2765
X-0.0818 Y0.2692
X-0.0774 Y0.2612
X-0.0723 Y0.2522
X-0.067 Y0.2427
X-0.0625 Y0.2343
X-0.0587 Y0.2269
X-0.0557 Y0.2203
X-0.0532 Y0.2144
X-0.0514 Y0.2092
X-0.0501 Y0.2043
X-0.0493 Y0.1998
X-0.049 Y0.198
X-0.0488 Y0.1968
X-0.0486 Y0.1963
X-0.0484
X-0.0482 Y0.1971
X-0.048 Y0.1984
X-0.0478 Y0.2005
X-0.0476 Y0.2032
X-0.0474 Y0.2055
X-0.0472 Y0.2072
X-0.0469 Y0.2083
X-0.0467 Y0.2085
X-0.0461 Y0.2079
X-0.045 Y0.2064
X-0.0436 Y0.2041
X-0.0418 Y0.2012
X-0.0377 Y0.1942
X-0.0335 Y0.1867
X-0.0275 Y0.175
X-0.022 Y0.163
X-0.0171 Y0.151
X-0.0128 Y0.139
X-0.0092 Y0.1274
X-0.0063 Y0.1162
X-0.0043 Y0.1058
X-0.0032 Y0.0962
X-0.0028 Y0.0907
X-0.0014 Y0.0933
X-0.0005 Y0.0951
X0.0002 Y0.0963
X0.0008 Y0.097
X0.0012 Y0.0972
X0.0017 Y0.0968
X0.0021 Y0.0959
X0.0027 Y0.0944
X0.0033 Y0.0923
X0.0062 Y0.0826
X0.0086 Y0.073
X0.0105 Y0.0633
X0.0119 Y0.0536
X0.0128 Y0.0438
X0.0133 Y0.0341
X0.0132 Y0.0244
X0.0127 Y0.0147
X0.0117 Y0.005
X0.0102 Y-0.0047
X0.0083 Y-0.0144
X0.0058 Y-0.024
X0.0029 Y-0.0335
X-0.0005 Y-0.0431
X-0.0044 Y-0.0525
X-0.0087 Y-0.0619
X-0.014 Y-0.0721
X-0.0195 Y-0.0816
X-0.0254 Y-0.0908
X-0.032 Y-0.0999
X-0.0366 Y-0.1059
X-0.0409 Y-0.1111
X-0.0427 Y-0.1133
X-0.0441 Y-0.1149
X-0.0452 Y-0.1159
X-0.0457 Y-0.1163
X-0.0462 Y-0.1161
X-0.0471 Y-0.1154
X-0.0516 Y-0.1119
X-0.0539 Y-0.1103
X-0.0591 Y-0.1066
X-0.0642 Y-0.1032
X-0.0665 Y-0.1018
X-0.0683 Y-0.1007
X-0.0704 Y-0.0994
X-0.0714 Y-0.0986
X-0.0713 Y-0.0983
X-0.0701
X-0.068 Y-0.0985
X-0.0653 Y-0.0988
X-0.0638 Y-0.0989
X-0.063
Y-0.0987
X-0.0635 Y-0.0984
X-0.0672 Y-0.0968
X-0.0705 Y-0.0952
X-0.0766 Y-0.0918
X-0.083 Y-0.0874
X-0.0866 Y-0.0847
X-0.0908 Y-0.0814
X-0.0979 Y-0.0758
X-0.1008 Y-0.0736
X-0.1026 Y-0.0722
X-0.1047 Y-0.0706
X-0.1052 Y-0.07
X-0.1053 Y-0.0697
X-0.1044 Y-0.0695
X-0.1028 Y-0.0694
X-0.1004 Y-0.0693
X-0.0996 Y-0.0689
X-0.1002 Y-0.0681
X-0.1022 Y-0.0668
X-0.1049 Y-0.0651
X-0.1078 Y-0.0631
X-0.1141 Y-0.0579
X-0.1207 Y-0.0519
X-0.1269 Y-0.0456
X-0.1311 Y-0.0409
X-0.1294 Y-0.0376
X-0.1259 Y-0.0298
X-0.1244 Y-0.0257
X-0.1234 Y-0.0218
X-0.1226 Y-0.0173
X-0.1223 Y-0.0122
X-0.1225 Y-0.0072
X-0.1232 Y-0.0031
X-0.1244 Y0.0005
X-0.1261 Y0.0039
X-0.1282 Y0.0071
X-0.1308 Y0.0101
X-0.1338 Y0.0128
X-0.1372 Y0.0152
X-0.1409 Y0.0174
X-0.1449 Y0.0191
X-0.1475 Y0.0201
X-0.1496 Y0.021
X-0.1529 Y0.0225
X-0.1553 Y0.0241
X-0.1575 Y0.0261
X-0.16 Y0.029
X-0.162 Y0.0323
X-0.1638 Y0.036
X-0.1651 Y0.0403
X-0.166 Y0.0451
X-0.1662 Y0.048
X-0.1663 Y0.0519
X-0.1658 Y0.0612
X-0.1641 Y0.0704
X-0.161 Y0.0798
X-0.159 Y0.0847
X-0.1567 Y0.0899
X-0.1504 Y0.1012
X-0.1466 Y0.1071
X-0.1443 Y0.1103
X-0.1417 Y0.1139
X-0.1334 Y0.1255
X-0.126 Y0.137
X-0.1195 Y0.1482
X-0.1139 Y0.1594
X-0.1091 Y0.1704
X-0.1051 Y0.1813
X-0.102 Y0.1922
X-0.0998 Y0.203
X-0.0984 Y0.2138
X-0.0979 Y0.2247
X-0.0982 Y0.2355
X-0.0993 Y0.2464
X-0.1012 Y0.2573
X-0.104 Y0.2684
X-0.1076 Y0.2796
X-0.112 Y0.2909
X-0.1132 Y0.2938
X-0.1143 Y0.2961
X-0.115 Y0.2977
X-0.1153 Y0.2983
Y0.298
Y0.2972
X-0.1151 Y0.2945
X-0.1152 Y0.2904
X-0.116 Y0.2871
X-0.1175 Y0.2847
X-0.1195 Y0.2835
X-0.1202
X-0.121 Y0.2842
X-0.1222 Y0.2858
X-0.1239 Y0.2885
X-0.1261 Y0.2921
X-0.1281 Y0.2951
X-0.1298 Y0.2976
X-0.1313 Y0.2996
X-0.1325 Y0.3011
X-0.1336 Y0.3022
X-0.1344 Y0.3028
X-0.1351 Y0.303
X-0.1352 Y0.3025
Y0.3012
Y0.2992
X-0.1351 Y0.2969
X-0.135 Y0.2949
X-0.1349 Y0.2934
X-0.135 Y0.2913
X-0.136 Y0.2884
X-0.1373 Y0.2863
X-0.1388 Y0.285
X-0.1406 Y0.2842
X-0.1428 Y0.284
X-0.1455 Y0.2844
X-0.1483 Y0.2855
X-0.151 Y0.2872
X-0.1536 Y0.2894
X-0.156 Y0.2921
X-0.1582 Y0.2952
X-0.1601 Y0.2986
X-0.1616 Y0.3023
X-0.1628 Y0.3068
X-0.1635 Y0.3115
X-0.1637 Y0.3163
X-0.1634 Y0.3213
X-0.1626 Y0.3264
X-0.1613 Y0.3316
X-0.1594 Y0.337
X-0.1571 Y0.3426
X-0.1551 Y0.347
X-0.1586 Y0.3503
X-0.1656 Y0.3561
X-0.1725 Y0.361
X-0.1792 Y0.3647
X-0.1824 Y0.366
X-0.1854 Y0.367
X-0.1896 Y0.368
X-0.1943 Y0.3684
X-0.1999 Y0.3685
X-0.2033 Y0.3683
X-0.2072 Y0.3681
X-0.2103 Y0.3679
X-0.2127 Y0.3677
X-0.2166
X-0.2201 Y0.3679
X-0.2222 Y0.3682
X-0.2247 Y0.3685
X-0.2325 Y0.3695
X-0.24 Y0.3702
X-0.2471 Y0.3706
X-0.254
X-0.2673 Y0.3697
X-0.28 Y0.3676
X-0.2892 Y0.3651
X-0.2985 Y0.3616
X-0.3076 Y0.3574
X-0.3158 Y0.3527
X-0.3238 Y0.3469
X-0.3314 Y0.3404
X-0.3385 Y0.3331
X-0.3452 Y0.3253
X-0.3513 Y0.3168
X-0.3569 Y0.3077
X-0.3618 Y0.2982
X-0.3661 Y0.2881
X-0.3679 Y0.2836
X-0.3695 Y0.2798
X-0.3709 Y0.2766
X-0.3722 Y0.274
X-0.3747 Y0.2698
X-0.3776 Y0.2663
X-0.3794 Y0.2642
X-0.3799 Y0.2636
X-0.38 Y0.2634
X-0.3797 Y0.2635
X-0.3789 Y0.2637
X-0.3762 Y0.2644
X-0.3746 Y0.2649
X-0.3734 Y0.2652
X-0.372 Y0.2653
X-0.3716 Y0.2646
X-0.3719 Y0.2628
X-0.3722 Y0.2609
X-0.3723 Y0.2584
X-0.3724 Y0.2522
X-0.3723 Y0.2458
X-0.3721 Y0.2429
X-0.3719 Y0.2405
X-0.371 Y0.2349
X-0.3697 Y0.2282
X-0.3688 Y0.2244
X-0.3678 Y0.2201
X-0.3666 Y0.2153
X-0.364 Y0.2046
X-0.3629 Y0.2
X-0.362 Y0.1961
X-0.3613 Y0.1927
X-0.3606 Y0.187
X-0.3604 Y0.1816
X-0.3603 Y0.1796
X-0.3602 Y0.1781
X-0.3601 Y0.1773
X-0.3599 Y0.1771
X-0.3595 Y0.1775
X-0.359 Y0.1786
X-0.3583 Y0.1803
X-0.3574 Y0.1827
X-0.3563 Y0.1855
X-0.3559 Y0.1865
X-0.3557 Y0.187
X-0.3551 Y0.1867
X-0.3541 Y0.1856
X-0.3527 Y0.1836
X-0.3511 Y0.1811
X-0.3442 Y0.169
X-0.3416 Y0.1633
X-0.3394 Y0.1579
X-0.3363 Y0.1467
X-0.3359 Y0.144
X-0.3355 Y0.1408
X-0.335 Y0.1336
X-0.3349 Y0.1264
X-0.3351 Y0.1232
X-0.3353 Y0.1206
X-0.3371 Y0.1117
X-0.34 Y0.1033
X-0.3437 Y0.0956
X-0.3482 Y0.0891
X-0.3491 Y0.0879
X-0.3497 Y0.0871
X-0.3499 Y0.0866
X-0.3496
X-0.3467 Y0.0877
X-0.3442 Y0.0885
X-0.3398 Y0.0888
X-0.3372 Y0.0884
X-0.3348 Y0.0875
X-0.3327 Y0.0863
X-0.3309 Y0.0846
X-0.3291 Y0.0825
X-0.328 Y0.0804
X-0.3275 Y0.078
X-0.3273 Y0.0748
X-0.3276 Y0.0711
X-0.3284 Y0.0678
X-0.3299 Y0.0647
X-0.3323 Y0.0611
X-0.3341 Y0.0586
X-0.3346 Y0.0578
X-0.3347 Y0.0574
X-0.3335 Y0.057
X-0.3309 Y0.0566
X-0.3273 Y0.0564
X-0.323 Y0.0562
X-0.3133
X-0.3086 Y0.0563
X-0.3044 Y0.0566
X-0.2988 Y0.0572
X-0.2937 Y0.0578
X-0.2845 Y0.0593
X-0.2763 Y0.0613
X-0.2689 Y0.0636
X-0.2661 Y0.0648
X-0.2627 Y0.0662
X-0.2553 Y0.0697
X-0.2478 Y0.0736
X-0.2444 Y0.0754
X-0.2415 Y0.0771
X-0.2397 Y0.0782
X-0.2383 Y0.079
X-0.2366 Y0.0799
X-0.2358
X-0.2356 Y0.0793
Y0.0773
X-0.2364 Y0.0744
X-0.2381 Y0.0703
X-0.2406 Y0.0651
X-0.243 Y0.0604
X-0.246 Y0.0551
X-0.2525 Y0.0441
X-0.2557 Y0.039
X-0.2586 Y0.0346
X-0.2611 Y0.031
X-0.2621 Y0.0297
X-0.2629 Y0.0288
X-0.2671 Y0.0253
X-0.2692 Y0.0242
X-0.2708 Y0.0238
X-0.2724 Y0.0242
X-0.2737 Y0.0254
X-0.2746 Y0.0275
X-0.2751 Y0.0304
X-0.2753 Y0.0343
X-0.2751 Y0.0391
X-0.2746 Y0.045
X-0.2737 Y0.0519
X-0.2732 Y0.0553
X-0.2729 Y0.058
X-0.2726 Y0.0599
Y0.0607
X-0.273 Y0.0606
X-0.274 Y0.0603
X-0.2772 Y0.0595
X-0.2804 Y0.0585
X-0.2815 Y0.0582
X-0.2821 Y0.058
X-0.2822 Y0.0573
X-0.2823 Y0.0554
X-0.2825 Y0.0528
X-0.2828 Y0.0495
X-0.2831 Y0.0432
X-0.283 Y0.0375
X-0.2825 Y0.0323
X-0.2816 Y0.0278
X-0.2804 Y0.0239
X-0.2789 Y0.0208
X-0.277 Y0.0184
X-0.2748 Y0.0169
X-0.2725 Y0.0162
X-0.2698 Y0.016
X-0.2671 Y0.0164
X-0.2645 Y0.0174
X-0.26 Y0.0204
X-0.2577 Y0.0225
X-0.2553 Y0.0252
X-0.2528 Y0.0285
X-0.2499 Y0.0326
X-0.2467 Y0.0376
X-0.2431 Y0.0435
X-0.2388 Y0.0503
X-0.2346 Y0.0565
X-0.2307 Y0.0618
X-0.2272 Y0.0659
X-0.2246 Y0.0688
X-0.2233 Y0.0644
X-0.2223 Y0.0592
X-0.2221 Y0.0559
Y0.0536
Y0.0509
Y0.0481
Y0.0458
X-0.2223 Y0.0424
X-0.2227 Y0.0397
X-0.2235 Y0.0368
X-0.2269 Y0.0271
X-0.2291 Y0.0224
X-0.2314 Y0.0183
X-0.2341 Y0.0146
X-0.237 Y0.0112
X-0.2398 Y0.0087
X-0.2409 Y0.0079
X-0.2419 Y0.0075
X-0.2446 Y0.0065
X-0.2477 Y0.005
X-0.2507 Y0.0033
X-0.253 Y0.0017
X-0.2549 Y-0.0004
X-0.2562 Y-0.0027
X-0.257 Y-0.0052
X-0.2573 Y-0.0083
Y-0.0119
X-0.2607 Y-0.0145
X-0.2651 Y-0.0182
X-0.27 Y-0.0229
X-0.2745 Y-0.0279
X-0.2764 Y-0.0302
X-0.278 Y-0.0322
X-0.2813 Y-0.0373
X-0.2839 Y-0.0422
X-0.2859 Y-0.047
X-0.2872 Y-0.0516
X-0.2877 Y-0.056
X-0.2876 Y-0.0602
X-0.2868 Y-0.0643
X-0.2854 Y-0.0682
X-0.2826 Y-0.0723
X-0.2788 Y-0.0756
X-0.2741 Y-0.078
X-0.2685 Y-0.0794
X-0.2657 Y-0.08
X-0.2648 Y-0.0803
X-0.2645 Y-0.0805
X-0.2646 Y-0.081
X-0.2649 Y-0.0821
X-0.2658 Y-0.0855
X-0.2674 Y-0.0919
X-0.2685 Y-0.0983
X-0.269 Y-0.1054
X-0.2692 Y-0.1094
Y-0.1139
Y-0.1182
Y-0.1214
X-0.2694 Y-0.124
X-0.2698 Y-0.1261
X-0.2705 Y-0.1281
X-0.2716 Y-0.1305
X-0.2733 Y-0.1334
X-0.2755 Y-0.1373
X-0.2787 Y-0.1432
X-0.2815 Y-0.1487
X-0.284 Y-0.1538
X-0.2862 Y-0.1587
X-0.2898 Y-0.1678
X-0.2924 Y-0.1765
X-0.2938 Y-0.1832
X-0.2947 Y-0.1897
X-0.2951 Y-0.1962
X-0.2949 Y-0.2025
X-0.2941 Y-0.2087
X-0.2928 Y-0.2148
X-0.2908 Y-0.2209
X-0.2884 Y-0.2269
X-0.2875 Y-0.2288
X-0.2869 Y-0.2297
X-0.2866 Y-0.2298
X-0.2863 Y-0.2293
X-0.2862 Y-0.2285
X-0.2861 Y-0.2273
X-0.2859 Y-0.2244
X-0.2857 Y-0.2209
X-0.2855 Y-0.2179
X-0.2851 Y-0.215
X-0.2837 Y-0.22
X-0.2803 Y-0.2296
X-0.2782 Y-0.2341
X-0.2762 Y-0.2379
X-0.2728 Y-0.2429
X-0.269 Y-0.2475
X-0.2641 Y-0.2523
X-0.2612 Y-0.255
X-0.2578 Y-0.258
X-0.254 Y-0.2613
X-0.2507 Y-0.2643
X-0.2479 Y-0.2671
X-0.2455 Y-0.2698
X-0.2417 Y-0.275
X-0.2389 Y-0.2804
X-0.2383 Y-0.2816
X-0.2379 Y-0.2825
X-0.2377 Y-0.2829
X-0.2375 Y-0.2828
Y-0.2823
X-0.2376 Y-0.2813
X-0.2379 Y-0.2798
X-0.2389 Y-0.2736
X-0.239 Y-0.2732
X-0.2387 Y-0.2733
X-0.238 Y-0.2739
X-0.2357 Y-0.2756
X-0.2293 Y-0.2803
X-0.2229 Y-0.284
X-0.2158 Y-0.2873
X-0.2118 Y-0.2889
X-0.2007 Y-0.2929
X-0.1983 Y-0.2938
X-0.1969 Y-0.2944
X-0.194 Y-0.2961
X-0.191 Y-0.2984
X-0.1882 Y-0.3009
X-0.1858 Y-0.3035
X-0.1838 Y-0.3058
X-0.1832 Y-0.3065
X-0.1829 Y-0.3067
X-0.183 Y-0.3062
X-0.1835 Y-0.305
X-0.1843 Y-0.3032
X-0.1853 Y-0.301
X-0.1863 Y-0.2988
X-0.187 Y-0.2971
X-0.1874 Y-0.2959
Y-0.2955
X-0.1866 Y-0.2958
X-0.185 Y-0.2967
X-0.1829 Y-0.2981
X-0.1806 Y-0.2998
X-0.1756 Y-0.3035
X-0.1735 Y-0.3053
X-0.1718 Y-0.3068
X-0.1685 Y-0.3102
X-0.1662 Y-0.3132
X-0.1649 Y-0.3159
X-0.1645 Y-0.3185
X-0.1648 Y-0.3207
X-0.1661 Y-0.3222
X-0.1681 Y-0.3235
X-0.1706 Y-0.3244
X-0.1736 Y-0.325
X-0.177 Y-0.3252
X-0.18 Y-0.325
X-0.182 Y-0.3247
X-0.1844 Y-0.3243
X-0.1873 Y-0.3238
X-0.1909 Y-0.3231
X-0.1953 Y-0.3222
X-0.2006 Y-0.321
X-0.2067 Y-0.3199
X-0.2121 Y-0.3194
X-0.2169
X-0.2212 Y-0.3199
X-0.2249 Y-0.3211
X-0.2281 Y-0.3228
X-0.2309 Y-0.3251
X-0.2332 Y-0.3281
X-0.2348 Y-0.3305
X-0.2335 Y-0.3327
X-0.2329 Y-0.3338
X-0.2322 Y-0.3355
X-0.2307 Y-0.3395
X-0.2295 Y-0.3425
X-0.2284 Y-0.345
X-0.2272 Y-0.347
X-0.226 Y-0.3486
X-0.2232 Y-0.3506
X-0.2195 Y-0.3515
X-0.2177 Y-0.3516
X-0.2165 Y-0.3515
X-0.2155 Y-0.3511
X-0.2143 Y-0.3502
X-0.2103 Y-0.3474
X-0.2056 Y-0.3452
X-0.2001 Y-0.3433
X-0.1936 Y-0.3417
X-0.1863 Y-0.3407
X-0.184 Y-0.3406
X-0.1811
X-0.1776 Y-0.3405
X-0.1731
X-0.168 Y-0.3406
X-0.1636 Y-0.3407
X-0.156 Y-0.3411
X-0.1491 Y-0.3419
X-0.1416 Y-0.3432
X-0.1377 Y-0.3438
X-0.1346
X-0.132 Y-0.3434
X-0.1294 Y-0.3424
X-0.1258 Y-0.3402
X-0.1232 Y-0.3374
X-0.1216 Y-0.3341
X-0.121 Y-0.3304
X-0.1213 Y-0.3272
X-0.1224 Y-0.3244
X-0.1235 Y-0.3228
X-0.125 Y-0.321
X-0.1269 Y-0.3189
X-0.1294 Y-0.3163
X-0.1325 Y-0.3129
X-0.1351 Y-0.3098
X-0.1373 Y-0.3069
X-0.139 Y-0.3042
X-0.1411 Y-0.2989
X-0.1418 Y-0.2936
X-0.1411 Y-0.2889
X-0.139 Y-0.2846
X-0.1355 Y-0.2809
X-0.1308 Y-0.2779
X-0.127 Y-0.2761
X-0.1232 Y-0.2751
X-0.1188 Y-0.2746
X-0.1161 Y-0.2745
X-0.113 Y-0.2744
X-0.11
X-0.1075 Y-0.2745
X-0.1031 Y-0.2749
X-0.0988 Y-0.2758
X-0.0963 Y-0.2764
X-0.0934 Y-0.2773
X-0.0905 Y-0.2783
X-0.0868 Y-0.2799
X-0.0781 Y-0.2839
X-0.0738 Y-0.286
X-0.07 Y-0.288
X-0.0671 Y-0.2897
X-0.0652 Y-0.291
X-0.0632 Y-0.2932
X-0.0616 Y-0.2959
X-0.0601 Y-0.2989
X-0.0603 Y-0.3092
Y-0.3123
Y-0.3148
Y-0.3167
X-0.0602 Y-0.3182
X-0.0599 Y-0.3202
X-0.0594 Y-0.3217
X-0.0582 Y-0.3236
X-0.0566 Y-0.3253
X-0.0545 Y-0.3267
X-0.0519 Y-0.3278
X-0.0489 Y-0.3287
X-0.0453 Y-0.3293
X-0.0412 Y-0.3297
X-0.0367 Y-0.3298
X-0.0318 Y-0.33
X-0.0276 Y-0.3306
X-0.0238 Y-0.3317
X-0.0202 Y-0.3332
X-0.0161 Y-0.3355
X-0.0141 Y-0.337
X-0.0118 Y-0.3388
X-0.0093 Y-0.3411
X-0.0062 Y-0.344
X-0.0025 Y-0.3476
X0.0019 Y-0.352
X0.0063 Y-0.3564
X0.01 Y-0.36
X0.0132 Y-0.3629
X0.0159 Y-0.3652
X0.0183 Y-0.3669
X0.0205 Y-0.3683
X0.025 Y-0.3703
X0.029 Y-0.3714
X0.0329 Y-0.3718
X0.0372 Y-0.3716
X0.0424 Y-0.3708
X0.0512 Y-0.3685
X0.0586 Y-0.3657
X0.0647 Y-0.3624
X0.0693 Y-0.3586
X0.0711 Y-0.3566
X0.0724 Y-0.3546
X0.0733 Y-0.3524
X0.0738 Y-0.3503
X0.0739 Y-0.348
X0.0735 Y-0.3458
X0.0727 Y-0.3435
X0.0714 Y-0.3412
X0.069 Y-0.3383
X0.0658 Y-0.336
X0.0622 Y-0.3344
X0.0582 Y-0.3334
X0.054 Y-0.333
X0.0496 Y-0.3334
X0.0453 Y-0.3344
X0.0412 Y-0.3362
X0.0381 Y-0.3378
X0.0342 Y-0.3339
X0.0282 Y-0.3286
X0.0213 Y-0.324
X0.0133 Y-0.3198
X0.0086 Y-0.3178
X0.0034 Y-0.3158
X-0.0026 Y-0.3134
X-0.0076 Y-0.3111
X-0.0117 Y-0.3089
X-0.0149 Y-0.3066
X-0.0175 Y-0.3041
X-0.0194 Y-0.3013
X-0.0209 Y-0.2981
X-0.0221 Y-0.2944
X-0.0228 Y-0.2902
X-0.023 Y-0.2851
X-0.0227 Y-0.28
X-0.0219 Y-0.2754
X-0.0206 Y-0.2715
X-0.0188 Y-0.2672
X-0.0171 Y-0.2636
X-0.0164 Y-0.2625
X-0.016 Y-0.2621
X-0.0157 Y-0.2629
X-0.0156 Y-0.2648
X-0.0155 Y-0.2663
X-0.0154 Y-0.267
X-0.0152 Y-0.2671
X-0.0148 Y-0.2666
X-0.0141 Y-0.2656
X-0.0133 Y-0.2641
X-0.0113 Y-0.2602
X-0.0093 Y-0.2558
X-0.0076 Y-0.2517
X-0.0043 Y-0.2412
X-0.0022 Y-0.2302
X-0.0012 Y-0.2194
X-0.0011 Y-0.2143
X-0.0014 Y-0.2096
X-0.0018 Y-0.2057
X-0.0019 Y-0.2045
Y-0.204
X-0.0016 Y-0.2043
X-0.001 Y-0.2052
X0.0009 Y-0.2084
X0.0017 Y-0.2099
X0.0024 Y-0.211
X0.0031 Y-0.2121
X0.0035
X0.0036 Y-0.2111
Y-0.21
Y-0.2083
X0.0032 Y-0.2043
X0.0017 Y-0.1955
X-0.0007 Y-0.1861
X-0.0038 Y-0.1766
X-0.0076 Y-0.1674
X-0.0107 Y-0.1608
X-0.0052 Y-0.1596
X0.0034 Y-0.1575
X0.0113 Y-0.1551
X0.0182 Y-0.1525
X0.024 Y-0.1497
X0.0282 Y-0.1471
X0.0327 Y-0.1437
X0.0353 Y-0.1415
X0.0381 Y-0.139
X0.0412 Y-0.1361
X0.0486 Y-0.1291
X0.052 Y-0.126
X0.0545 Y-0.1237
X0.0553 Y-0.1229
X0.0558 Y-0.1225
X0.0574 Y-0.1214
X0.0563 Y-0.1242
X0.0554 Y-0.1264
X0.0543 Y-0.1287
Y-0.1291
X0.0546
X0.0553 Y-0.1287
X0.0565 Y-0.1278
X0.0581 Y-0.1265
X0.0602 Y-0.1247
X0.0628 Y-0.1224
G0 X0.0251 Y-0.0984
G1 X0.0146 Y-0.1098 F15
X0.0035 Y-0.12
X-0.0021 Y-0.1245
X-0.0076 Y-0.1284
X-0.0164 Y-0.1337
X-0.0203 Y-0.1359
X-0.0234 Y-0.1373
X-0.0253 Y-0.1381
X-0.0282 Y-0.1345
X-0.0303 Y-0.1319
X-0.031 Y-0.131
X-0.0312 Y-0.1306
X-0.031 Y-0.1304
X-0.0305 Y-0.1297
X-0.0296 Y-0.1287
X-0.0285 Y-0.1274
X-0.0257 Y-0.1241
X-0.0222 Y-0.12
X-0.0141 Y-0.1107
X-0.0067 Y-0.1019
X0.0001 Y-0.0936
X0.0062 Y-0.0858
X0.0118 Y-0.0784
X0.0168 Y-0.0713
X0.0212 Y-0.0645
X0.0252 Y-0.0579
X0.0288 Y-0.0515
X0.0319 Y-0.0451
X0.0371 Y-0.0324
X0.041 Y-0.0193
X0.044 Y-0.0054
X0.0451 Y0.0011
X0.0461 Y0.0079
X0.0464 Y0.0109
X0.0467 Y0.0134
X0.0469 Y0.015
X0.0468 Y0.0157
X0.0466 Y0.0155
X0.0459 Y0.0147
X0.0441 Y0.0118
X0.0423 Y0.0089
X0.0417 Y0.0081
X0.0414 Y0.0078
Y0.0086
X0.0417 Y0.0105
X0.0421 Y0.0132
X0.0426 Y0.0166
X0.0433 Y0.0215
X0.0438 Y0.0257
X0.044 Y0.0306
Y0.0337
Y0.0373
Y0.0401
Y0.0433
X0.0439 Y0.0504
X0.0437 Y0.0578
X0.0436 Y0.0646
X0.043 Y0.0796
X0.0407 Y0.0764
X0.0398 Y0.075
X0.0391 Y0.0742
X0.0386 Y0.0739
X0.0381 Y0.0742
X0.0378 Y0.0752
X0.0374 Y0.077
X0.037 Y0.0797
X0.0365 Y0.0834
X0.0337 Y0.1015
X0.0319 Y0.1105
X0.0299 Y0.1198
X0.0275 Y0.1299
X0.0246 Y0.1409
X0.0212 Y0.1532
X0.0193 Y0.1599
X0.0172 Y0.167
X0.0151 Y0.1745
X0.0131 Y0.1813
X0.0114 Y0.1875
X0.0099 Y0.1931
X0.0086 Y0.1982
X0.0074 Y0.2029
X0.0055 Y0.211
X0.005 Y0.2137
X0.0043 Y0.2171
X0.0028 Y0.225
X0.0022 Y0.2288
X0.0016 Y0.232
X0.0012 Y0.2344
X0.0011 Y0.2355
X0.001
X0.0007 Y0.2351
X-0.0002 Y0.2332
X-0.0013 Y0.2314
X-0.0017 Y0.2309
X-0.002
X-0.0023 Y0.2318
X-0.0029 Y0.2338
X-0.0037 Y0.2367
X-0.0045 Y0.2402
X-0.0063 Y0.248
X-0.0071 Y0.2516
X-0.0077 Y0.2548
X-0.0095 Y0.2661
X-0.0107 Y0.2763
X-0.0113 Y0.2861
X-0.0112 Y0.2959
X-0.0106 Y0.3058
X-0.0095 Y0.3146
X-0.0076 Y0.3229
X-0.005 Y0.3313
X-0.0032 Y0.3363
X-0.0046 Y0.3352
X-0.0088 Y0.3316
X-0.01 Y0.3306
X-0.0108 Y0.3301
X-0.0112 Y0.33
Y0.3303
X-0.0111 Y0.3308
X-0.0108 Y0.3316
X-0.0101 Y0.3343
X-0.009 Y0.3381
X-0.0078 Y0.3425
X-0.0056 Y0.3497
X-0.0035 Y0.3566
X0.0007 Y0.3691
X0.005 Y0.3802
X0.0096 Y0.3902
X0.0146 Y0.3993
X0.0201 Y0.4078
X0.0262 Y0.4159
X0.033 Y0.4239
X0.0376 Y0.429
X0.0343 Y0.4275
X0.0308 Y0.4259
X0.0269 Y0.4241
X0.0239 Y0.4228
X0.0228 Y0.4225
X0.0224 Y0.4223
X0.0225 Y0.4227
X0.0234 Y0.4237
X0.0248 Y0.4252
X0.0267 Y0.4272
X0.029 Y0.4296
X0.0316 Y0.4322
X0.0376 Y0.438
X0.0439 Y0.4442
X0.05 Y0.4499
X0.0527 Y0.4525
X0.0552 Y0.4547
X0.0572 Y0.4566
X0.0588 Y0.4579
X0.0691 Y0.4659
X0.0792 Y0.4729
X0.0894 Y0.4789
X0.0995 Y0.484
X0.1097 Y0.4881
X0.12 Y0.4913
X0.1306 Y0.4937
X0.1414 Y0.4952
X0.1445 Y0.4954
X0.1482
X0.1566 Y0.4953
X0.1653 Y0.4949
X0.1693 Y0.4945
X0.1727 Y0.4941
X0.1821 Y0.4925
X0.1912 Y0.4904
X0.2002 Y0.4878
X0.2094 Y0.4846
X0.2122 Y0.4836
X0.2154 Y0.4823
X0.2223 Y0.4794
X0.2253 Y0.478
X0.2278 Y0.4769
X0.2293 Y0.4762
X0.2297 Y0.4759
X0.2292 Y0.476
X0.2279 Y0.4762
X0.2242 Y0.4769
X0.2122 Y0.4791
X0.2005 Y0.4804
X0.1895 Y0.481
X0.1794 Y0.4807
X0.1717 Y0.4799
X0.1645 Y0.4787
X0.1577 Y0.477
X0.1512 Y0.475
X0.1451 Y0.4724
X0.1391 Y0.4694
X0.1334 Y0.4658
X0.1278 Y0.4618
X0.1255 Y0.46
X0.1248 Y0.4596
X0.1245 Y0.4594
X0.1247 Y0.4596
X0.1251 Y0.4602
X0.1266 Y0.4622
X0.1289 Y0.4652
X0.1318 Y0.4688
X0.1382 Y0.4771
X0.1414 Y0.4811
X0.1443 Y0.4847
X0.1454 Y0.4862
X0.1455 Y0.4866
X0.1454 Y0.4865
X0.142 Y0.4839
X0.135 Y0.4784
X0.1254 Y0.4708
X0.1164 Y0.4634
X0.1081 Y0.4562
X0.1004 Y0.4493
X0.0932 Y0.4425
X0.0865 Y0.4358
X0.0804 Y0.4292
X0.0749 Y0.4228
X0.0697 Y0.4163
X0.0651 Y0.4099
X0.0609 Y0.4036
X0.0571 Y0.3971
X0.0506 Y0.3841
X0.0455 Y0.3706
X0.042 Y0.3585
X0.0404 Y0.3519
X0.039 Y0.345
X0.0376 Y0.3374
X0.0363 Y0.3292
X0.0351 Y0.3202
X0.0335 Y0.3065
X0.0331 Y0.3034
X0.0328 Y0.3013
X0.0327 Y0.3005
X0.0324 Y0.301
X0.0317 Y0.3027
X0.0308 Y0.3051
X0.0297 Y0.3081
X0.0286 Y0.3112
X0.0277 Y0.3136
X0.027 Y0.3152
X0.0268 Y0.3158
Y0.3155
Y0.3149
X0.0269 Y0.3124
X0.0271 Y0.3088
X0.0274 Y0.3045
X0.0285 Y0.2909
X0.0297 Y0.2779
X0.0312 Y0.2657
X0.0328 Y0.2541
X0.0346 Y0.2432
X0.0366 Y0.2328
X0.0388 Y0.2231
X0.0412 Y0.2139
X0.0419 Y0.2114
X0.0429 Y0.2083
X0.0452 Y0.2012
X0.0475 Y0.1942
X0.0485 Y0.1914
X0.0493 Y0.1892
X0.0492 Y0.189
X0.0487 Y0.1892
X0.0478 Y0.1899
X0.0466 Y0.191
X0.0416 Y0.1956
X0.0397 Y0.1973
X0.042 Y0.193
X0.0453 Y0.1859
X0.0483 Y0.1778
X0.0511 Y0.1687
X0.0537 Y0.1585
X0.056 Y0.1474
X0.0581 Y0.1354
X0.0599 Y0.1223
X0.0615 Y0.1084
X0.062 Y0.1033
X0.0624 Y0.0996
X0.0625 Y0.0971
X0.0623 Y0.0959
X0.0618 Y0.0956
X0.061 Y0.0963
X0.0598 Y0.0979
X0.0581 Y0.1002
X0.0565 Y0.1024
X0.0552 Y0.1043
X0.0542 Y0.1055
X0.0539 Y0.1059
X0.0541 Y0.1052
X0.0547 Y0.1035
X0.0557 Y0.101
X0.0569 Y0.098
X0.0611 Y0.0871
X0.0645 Y0.077
X0.0673 Y0.0675
X0.0694 Y0.0583
X0.0709 Y0.0495
X0.0718 Y0.0409
X0.0721 Y0.0322
X0.0719 Y0.0233
X0.0717 Y0.0199
X0.0714 Y0.0158
X0.0708 Y0.0067
X0.0704 Y0.0024
X0.0701 Y-0.0012
X0.0699 Y-0.0038
X0.0697 Y-0.005
X0.0693 Y-0.0046
X0.0684 Y-0.0034
X0.0671 Y-0.0014
X0.0639 Y0.0037
X0.0625 Y0.0057
X0.0616 Y0.007
X0.0612 Y0.0075
X0.0611 Y0.007
Y0.0059
X0.0615 Y0.0026
X0.062 Y-0.0077
X0.0614 Y-0.0185
X0.0596 Y-0.0297
X0.0566 Y-0.0412
X0.0526 Y-0.0528
X0.0475 Y-0.0643
X0.0415 Y-0.0755
X0.0345 Y-0.0864
X0.0251 Y-0.0984
G0 X-0.0089 Y0.3888
G1 X-0.0125 Y0.3776 F15
X-0.0155 Y0.366
X-0.018 Y0.3541
X-0.02 Y0.3418
X-0.0213 Y0.3293
X-0.0216 Y0.3264
X-0.0219 Y0.3241
X-0.0222 Y0.3225
X-0.0223 Y0.322
X-0.0228 Y0.3228
X-0.0236 Y0.3247
X-0.0248 Y0.3276
X-0.0276 Y0.3345
X-0.0288 Y0.3373
X-0.0296 Y0.3392
X-0.0299 Y0.3398
X-0.0298 Y0.3389
X-0.0295 Y0.3367
X-0.0291 Y0.3334
X-0.0285 Y0.3294
X-0.0281 Y0.3268
X-0.0277 Y0.3233
X-0.0272 Y0.3192
X-0.0266 Y0.3145
X-0.0254 Y0.304
X-0.0234 Y0.2861
X-0.0226 Y0.2795
X-0.0219 Y0.2734
X-0.0212 Y0.2677
X-0.0198 Y0.2573
X-0.0184 Y0.2479
X-0.0154 Y0.2307
X-0.0136 Y0.2221
X-0.0116 Y0.2129
X-0.01 Y0.2061
X-0.0086 Y0.2003
X-0.0057 Y0.1899
X-0.0039 Y0.1844
X-0.0016 Y0.1781
X-0.0002 Y0.1745
X0.0013 Y0.1706
X0.003 Y0.1662
X0.0049 Y0.1613
X0.0075 Y0.1545
X0.0099 Y0.1482
X0.0121 Y0.1424
X0.0141 Y0.1369
X0.0175 Y0.127
X0.0204 Y0.1182
X0.0227 Y0.1102
X0.0245 Y0.1027
X0.0272 Y0.0881
X0.0275 Y0.0852
X0.0277 Y0.0811
X0.0279 Y0.0714
Y0.0664
X0.0277 Y0.0619
X0.0275 Y0.0583
X0.0272 Y0.0559
X0.0269 Y0.0536
X0.0268 Y0.0529
Y0.0526
X0.0271 Y0.0527
X0.0276 Y0.0533
X0.029 Y0.0552
X0.0311 Y0.0579
X0.0315 Y0.0543
X0.0316 Y0.0531
X0.0317 Y0.0512
X0.0318 Y0.0488
X0.0319 Y0.0457
X0.032 Y0.0385
Y0.0303
Y0.0226
Y0.0162
X0.0318 Y0.0108
X0.0315 Y0.006
X0.0304 Y-0.003
X0.0295 Y-0.0079
X0.0284 Y-0.0135
X0.025 Y-0.0279
X0.0205 Y-0.042
X0.0149 Y-0.0556
X0.0084 Y-0.0688
X0.0008 Y-0.0816
X-0.0078 Y-0.094
X-0.0175 Y-0.1061
X-0.0283 Y-0.1178
X-0.0307 Y-0.1202
X-0.0326 Y-0.1221
X-0.034 Y-0.1235
X-0.035 Y-0.1244
X-0.0363 Y-0.1251
X-0.037 Y-0.1248
X-0.0374 Y-0.1243
Y-0.1236
X-0.0366 Y-0.1224
X-0.0292 Y-0.1128
X-0.0238 Y-0.1056
X-0.0141 Y-0.0917
X-0.0057 Y-0.0783
X0.0015 Y-0.0653
X0.0075 Y-0.0526
X0.0124 Y-0.04
X0.0163 Y-0.0272
X0.0193 Y-0.0142
X0.0212 Y-0.0025
X0.0223 Y0.0095
X0.0228 Y0.0218
X0.0225 Y0.0345
X0.0216 Y0.0474
X0.0199 Y0.0607
X0.0175 Y0.0743
X0.0143 Y0.0881
X0.0109 Y0.1008
X0.0071 Y0.1134
X0.0049 Y0.1199
X0.0025 Y0.1268
X-0.0002 Y0.1343
X-0.0032 Y0.1423
X-0.0102 Y0.1612
X-0.0164 Y0.1788
X-0.0218 Y0.1953
X-0.0266 Y0.2109
X-0.0306 Y0.2257
X-0.0341 Y0.2399
X-0.0369 Y0.2537
X-0.0393 Y0.2672
X-0.0401 Y0.2727
X-0.0407 Y0.2777
X-0.0416 Y0.2872
X-0.042 Y0.2966
Y0.3071
X-0.0418 Y0.3122
X-0.0417 Y0.3167
X-0.041 Y0.3243
X-0.04 Y0.3308
X-0.0385 Y0.337
X-0.0379 Y0.3394
X-0.0378 Y0.34
X-0.0379 Y0.3402
X-0.0381 Y0.3399
X-0.0386 Y0.339
X-0.0393 Y0.3376
X-0.0403 Y0.3357
X-0.0428 Y0.331
X-0.0458 Y0.3253
X-0.0481 Y0.321
X-0.0499 Y0.3176
X-0.0512 Y0.3151
X-0.0522 Y0.3134
X-0.0529 Y0.3124
X-0.0534 Y0.3119
X-0.0538 Y0.3122
X-0.054 Y0.314
X-0.0542 Y0.3169
X-0.0544 Y0.3207
X-0.0545 Y0.3248
Y0.3332
X-0.0544 Y0.3367
X-0.0542 Y0.3392
X-0.052 Y0.3517
X-0.0486 Y0.3648
X-0.0438 Y0.3783
X-0.0379 Y0.392
X-0.0365 Y0.3949
X-0.0354 Y0.3973
X-0.0347 Y0.399
X-0.0345 Y0.3996
X-0.0351 Y0.3992
X-0.0368 Y0.3979
X-0.0392 Y0.396
X-0.0421 Y0.3936
X-0.0451 Y0.3912
X-0.0476 Y0.3892
X-0.0493 Y0.3879
X-0.05 Y0.3873
X-0.0501 Y0.3879
X-0.0499 Y0.3897
X-0.0493 Y0.3925
X-0.0484 Y0.3963
X-0.0468 Y0.4016
X-0.0448 Y0.4071
X-0.0396 Y0.4184
X-0.0331 Y0.4295
X-0.0257 Y0.4397
X-0.0237 Y0.4421
X-0.0212 Y0.4448
X-0.0155 Y0.4506
X-0.0098 Y0.456
X-0.0071 Y0.4583
X-0.0049 Y0.4601
X0.0038 Y0.466
X0.0123 Y0.4705
X0.0208 Y0.4737
X0.0295 Y0.4756
X0.0323 Y0.4757
X0.0358 Y0.4755
X0.0394 Y0.475
X0.0424 Y0.4743
X0.0449 Y0.4733
X0.0478 Y0.4719
X0.0502 Y0.4705
X0.0509 Y0.4699
X0.0513 Y0.4695
X0.0508 Y0.4691
X0.0495 Y0.468
X0.0475 Y0.4664
X0.0451 Y0.4646
X0.039 Y0.4597
X0.0333 Y0.4547
X0.0227 Y0.4439
X0.0178 Y0.438
X0.0132 Y0.4318
X0.0087 Y0.4253
X0.0045 Y0.4184
X-0.0004 Y0.4092
X-0.0049 Y0.3993
X-0.0089 Y0.3888
G0 X-0.1249 Y0.343
G1 X-0.1263 Y0.345 F15
X-0.1282 Y0.3469
X-0.1304 Y0.3485
X-0.1326 Y0.3495
X-0.1354 Y0.3501
X-0.1388 Y0.3503
X-0.1422 Y0.3501
X-0.1448 Y0.3496
X-0.1473 Y0.3485
X-0.1495 Y0.347
X-0.1516 Y0.3451
X-0.1535 Y0.3429
X-0.1566 Y0.3374
X-0.1589 Y0.3307
X-0.1598 Y0.3254
X-0.16 Y0.3222
Y0.3178
Y0.3135
X-0.1597 Y0.3098
X-0.1593 Y0.3065
X-0.1586 Y0.3035
X-0.1564 Y0.2982
X-0.1529 Y0.2931
X-0.1499 Y0.2897
X-0.1474 Y0.2877
X-0.1454 Y0.2871
X-0.1437 Y0.2878
X-0.1427 Y0.2892
X-0.1425 Y0.2911
X-0.1429 Y0.2933
X-0.1439 Y0.2955
X-0.1449 Y0.2975
X-0.1455 Y0.3
X-0.1458 Y0.3029
Y0.3062
X-0.1454 Y0.31
X-0.1447 Y0.3142
X-0.1436 Y0.3188
X-0.1421 Y0.3238
X-0.141 Y0.327
X-0.1398 Y0.3293
X-0.1384 Y0.3309
X-0.1364 Y0.3321
X-0.1345 Y0.3326
X-0.1325 Y0.3321
X-0.1307 Y0.3307
X-0.1292 Y0.3286
X-0.1289 Y0.3278
X-0.1288 Y0.3262
X-0.1286 Y0.3219
X-0.128 Y0.3137
X-0.1271 Y0.3097
X-0.1259 Y0.3056
X-0.1232 Y0.2983
X-0.122 Y0.2957
X-0.1216 Y0.2949
X-0.1213 Y0.2946
X-0.1207 Y0.2955
X-0.1201 Y0.2976
X-0.1196 Y0.3032
X-0.1197 Y0.3052
X-0.12 Y0.3078
X-0.1212 Y0.3136
X-0.1224 Y0.3194
X-0.1232 Y0.3249
X-0.1239 Y0.3358
Y0.3385
X-0.1241 Y0.3404
X-0.1249 Y0.343
G0 X-0.1631 Y0.3406
G1 X-0.1632 Y0.3386 F15
X-0.1637 Y0.3371
X-0.1643 Y0.3353
X-0.1653 Y0.3325
X-0.1664 Y0.3302
X-0.1689 Y0.327
X-0.1702 Y0.3258
X-0.175 Y0.3277
X-0.1842 Y0.3306
X-0.1934 Y0.3322
X-0.2031 Y0.3327
X-0.2083 Y0.3324
X-0.2187 Y0.3314
X-0.2228 Y0.3312
X-0.2258
X-0.2268 Y0.3314
X-0.2274 Y0.3316
X-0.2273 Y0.3319
X-0.2263 Y0.3325
X-0.2243 Y0.3334
X-0.2216 Y0.3345
X-0.219 Y0.3355
X-0.2169 Y0.3363
X-0.2156 Y0.3369
X-0.215 Y0.3372
X-0.2156 Y0.3374
X-0.217
X-0.2191 Y0.3373
X-0.2217 Y0.3372
X-0.2271 Y0.3367
X-0.2296 Y0.3364
X-0.2314 Y0.336
X-0.2396 Y0.3339
X-0.2478 Y0.3307
X-0.2561 Y0.3265
X-0.2645 Y0.3213
X-0.2732 Y0.3149
X-0.282 Y0.3075
X-0.2911 Y0.2989
X-0.3005 Y0.2891
X-0.3036 Y0.2858
X-0.3063 Y0.2829
X-0.3082 Y0.2807
X-0.3088 Y0.28
X-0.3091 Y0.2796
X-0.3088
X-0.3073 Y0.2803
X-0.3049 Y0.2816
X-0.2988 Y0.2853
X-0.2963 Y0.2868
X-0.2945 Y0.2878
X-0.2938 Y0.2881
X-0.2939 Y0.2878
X-0.2945 Y0.287
X-0.2963 Y0.2846
X-0.3009 Y0.2785
X-0.305 Y0.2722
X-0.3084 Y0.266
X-0.3111 Y0.2599
X-0.3129 Y0.2549
X-0.3144 Y0.2494
X-0.3158 Y0.2428
X-0.3166 Y0.2388
X-0.3174 Y0.2342
X-0.3188 Y0.2267
X-0.3204 Y0.2201
X-0.322 Y0.2144
X-0.3241 Y0.2088
X-0.3242 Y0.2082
X-0.3238 Y0.2086
X-0.3228 Y0.2097
X-0.3215 Y0.2114
X-0.3199 Y0.2134
X-0.3181 Y0.2157
X-0.3168 Y0.2172
X-0.316 Y0.218
X-0.3156
X-0.3154 Y0.2173
X-0.3151 Y0.216
X-0.3146 Y0.2123
X-0.3132 Y0.2033
X-0.3115 Y0.1952
X-0.3096 Y0.1883
X-0.3061 Y0.1791
X-0.3053 Y0.1754
X-0.3048 Y0.171
X-0.3046 Y0.1656
X-0.3047 Y0.1617
X-0.3049 Y0.1583
X-0.3059 Y0.1527
X-0.308 Y0.1478
X-0.3095 Y0.1453
X-0.3114 Y0.1426
X-0.3128 Y0.1406
X-0.3143 Y0.1383
X-0.3174 Y0.1334
X-0.3205 Y0.1282
X-0.3206 Y0.1318
X-0.3212 Y0.1367
X-0.3226 Y0.1425
X-0.3248 Y0.1491
X-0.3278 Y0.1564
X-0.3315 Y0.1644
X-0.3359 Y0.1728
X-0.341 Y0.1817
X-0.3467 Y0.191
X-0.3509 Y0.198
X-0.3546 Y0.2049
X-0.3579 Y0.2117
X-0.3607 Y0.2184
X-0.363 Y0.2251
X-0.3648 Y0.2316
X-0.3662 Y0.2381
X-0.367 Y0.2444
X-0.3674 Y0.2507
X-0.3673 Y0.2568
X-0.3667 Y0.2628
X-0.3657 Y0.2687
X-0.3641 Y0.2745
X-0.3621 Y0.2801
X-0.3596 Y0.2856
X-0.3566 Y0.291
X-0.3549 Y0.2938
X-0.3545 Y0.2947
X-0.3543 Y0.2951
X-0.355 Y0.2949
X-0.3563 Y0.2944
X-0.3577 Y0.2939
X-0.3583 Y0.294
X-0.3581 Y0.2946
X-0.3575 Y0.2957
X-0.3554 Y0.2989
X-0.3499 Y0.3069
X-0.3421 Y0.3163
X-0.3334 Y0.3253
X-0.3239 Y0.3335
X-0.3139 Y0.3409
X-0.3036 Y0.3474
X-0.2932 Y0.3527
X-0.2828 Y0.3569
X-0.2727 Y0.3597
X-0.2691 Y0.3604
X-0.2661 Y0.3607
X-0.2651
X-0.2645
X-0.2644 Y0.3605
X-0.2648 Y0.3603
X-0.2658 Y0.3599
X-0.2702 Y0.358
X-0.2731 Y0.3568
X-0.2801 Y0.3539
X-0.2867 Y0.3509
X-0.2986 Y0.3445
X-0.3095 Y0.3375
X-0.3197 Y0.3296
X-0.3212 Y0.3284
X-0.323 Y0.3267
X-0.3275 Y0.3225
X-0.3379 Y0.3124
X-0.3428 Y0.3075
X-0.3449 Y0.3053
X-0.3468 Y0.3034
X-0.3482 Y0.3018
X-0.3493 Y0.3007
X-0.3498 Y0.3
Y0.2998
X-0.3489 Y0.3002
X-0.3473 Y0.3009
X-0.3432 Y0.303
X-0.3393 Y0.3048
X-0.3381 Y0.3053
X-0.3376 Y0.3054
X-0.3377 Y0.3051
X-0.338 Y0.3044
X-0.3401 Y0.3007
X-0.3414 Y0.2985
X-0.3441 Y0.2932
X-0.3469 Y0.2874
X-0.3492 Y0.2823
X-0.3537 Y0.27
X-0.3573 Y0.2577
X-0.3586 Y0.2519
X-0.3595 Y0.2464
X-0.3601 Y0.2414
X-0.3604 Y0.2369
Y0.2319
X-0.3569 Y0.2389
X-0.3543 Y0.2442
X-0.3534 Y0.2462
X-0.3529 Y0.2472
X-0.3526 Y0.2475
X-0.3524 Y0.2466
X-0.3523 Y0.2456
X-0.3522 Y0.2442
X-0.3521 Y0.2423
X-0.352 Y0.24
X-0.3514 Y0.2313
X-0.3501 Y0.2232
X-0.3481 Y0.2149
X-0.3453 Y0.2058
X-0.3429 Y0.1994
X-0.3402 Y0.1929
X-0.3385 Y0.1891
X-0.3364 Y0.1846
X-0.3338 Y0.1792
X-0.3274 Y0.166
X-0.3246 Y0.1601
X-0.3235 Y0.1577
X-0.3225 Y0.1557
X-0.3219 Y0.1542
X-0.3215 Y0.1534
X-0.3207 Y0.1516
X-0.32 Y0.1509
X-0.3198 Y0.1512
Y0.152
X-0.32 Y0.1547
X-0.3216 Y0.162
X-0.3227 Y0.1657
X-0.3244 Y0.1702
X-0.3255 Y0.173
X-0.3269 Y0.1765
X-0.3286 Y0.1806
X-0.3307 Y0.1855
X-0.333 Y0.1914
X-0.3351 Y0.197
X-0.3382 Y0.2074
X-0.3401 Y0.2174
X-0.3409 Y0.2275
Y0.2352
X-0.3401 Y0.2426
X-0.3387 Y0.2496
X-0.3364 Y0.2565
X-0.3334 Y0.2634
X-0.3294 Y0.2703
X-0.3245 Y0.2774
X-0.3186 Y0.2849
X-0.318 Y0.2858
X-0.3182 Y0.2859
X-0.3186 Y0.2857
X-0.3195 Y0.2852
X-0.3209 Y0.2844
X-0.3228 Y0.2832
X-0.3253 Y0.2817
X-0.3285 Y0.2797
X-0.3311 Y0.2781
X-0.333 Y0.277
X-0.3337 Y0.2767
X-0.3335 Y0.2775
X-0.3327 Y0.2794
X-0.3314 Y0.282
X-0.3298 Y0.2852
X-0.3261 Y0.2919
X-0.3244 Y0.2949
X-0.323 Y0.2972
X-0.3194 Y0.3025
X-0.3158 Y0.3071
X-0.3118 Y0.3115
X-0.3072 Y0.3163
X-0.3021 Y0.3209
X-0.2969 Y0.3251
X-0.2915 Y0.329
X-0.2858 Y0.3325
X-0.2796 Y0.3358
X-0.2728 Y0.3389
X-0.2653 Y0.3419
X-0.2569 Y0.345
X-0.254 Y0.346
X-0.2516 Y0.3469
X-0.25 Y0.3475
X-0.2494 Y0.3479
X-0.2501 Y0.3482
X-0.2519 Y0.3483
X-0.2529
X-0.2536 Y0.3484
X-0.2538 Y0.3486
X-0.2536 Y0.3488
X-0.2529 Y0.3492
X-0.2518 Y0.3496
X-0.2502 Y0.3502
X-0.2481 Y0.3508
X-0.237 Y0.3537
X-0.2252 Y0.3555
X-0.2134 Y0.3564
X-0.2078
X-0.2024 Y0.3561
X-0.1966 Y0.3555
X-0.1912 Y0.3547
X-0.1862 Y0.3536
X-0.1815 Y0.3522
X-0.1771 Y0.3506
X-0.1732 Y0.3487
X-0.1695 Y0.3465
X-0.1662 Y0.3441
X-0.164 Y0.3422
X-0.1631 Y0.3406
G0 X-0.2178 Y0.2067
G1 X-0.2133 Y0.2051 F15
X-0.2101 Y0.2032
X-0.2073 Y0.2008
X-0.2047 Y0.1978
X-0.2026 Y0.1944
X-0.2008 Y0.1907
X-0.1994 Y0.1866
X-0.1985 Y0.1822
X-0.198 Y0.1776
Y0.171
X-0.1989 Y0.1648
X-0.2005 Y0.1587
X-0.2031 Y0.1524
X-0.2053 Y0.1479
X-0.2095 Y0.1492
X-0.2138 Y0.1501
X-0.2186 Y0.1507
X-0.2232 Y0.1508
X-0.2271 Y0.1504
X-0.2335 Y0.1482
X-0.2358 Y0.1473
X-0.2366 Y0.1471
X-0.2371
X-0.2376 Y0.1477
X-0.2383 Y0.149
X-0.2401 Y0.1528
X-0.2419 Y0.1573
X-0.2432 Y0.1613
X-0.2442 Y0.1666
X-0.2445 Y0.1725
X-0.2442 Y0.1784
X-0.2432 Y0.1834
X-0.2411 Y0.1894
X-0.2383 Y0.1948
X-0.2348 Y0.1994
X-0.2309 Y0.203
X-0.2265 Y0.2057
X-0.2222 Y0.2069
X-0.2178 Y0.2067
G0 X-0.2364 Y0.1818
G1 X-0.2381 Y0.178 F15
X-0.2384 Y0.1764
X-0.2383 Y0.1755
X-0.238 Y0.1756
X-0.2374 Y0.1759
X-0.2357 Y0.1771
X-0.2326 Y0.1793
X-0.2299 Y0.1804
X-0.2276 Y0.1803
X-0.2256 Y0.1793
X-0.2242 Y0.1776
X-0.2234 Y0.1754
X-0.2231 Y0.173
X-0.2234 Y0.1707
X-0.2242 Y0.1685
X-0.2254 Y0.1666
X-0.2269 Y0.1654
X-0.2288 Y0.165
X-0.2317 Y0.1655
X-0.2333 Y0.1664
X-0.2352 Y0.1679
X-0.2374 Y0.1697
Y0.1676
X-0.2372 Y0.166
X-0.2364 Y0.1645
X-0.2338 Y0.1617
X-0.23 Y0.1597
X-0.2255 Y0.1588
X-0.2228 Y0.1589
X-0.2206 Y0.1594
X-0.2188 Y0.1606
X-0.217 Y0.1624
X-0.2158 Y0.1645
X-0.2148 Y0.1671
X-0.214 Y0.1732
X-0.2146 Y0.1794
X-0.2155 Y0.1822
X-0.2167 Y0.1845
X-0.2189 Y0.1866
X-0.2219 Y0.188
X-0.2254 Y0.1884
X-0.2288 Y0.1878
X-0.231 Y0.1867
X-0.2331 Y0.1853
X-0.235 Y0.1836
X-0.2364 Y0.1818
G0 X-0.1964 Y0.0915
G1 X-0.1924 Y0.0928 F15
X-0.1888 Y0.093
X-0.1857 Y0.0923
X-0.1829 Y0.0904
X-0.181 Y0.0872
X-0.1799 Y0.0827
X-0.1798 Y0.077
X-0.1802 Y0.0723
X-0.1812 Y0.0677
X-0.1829 Y0.0631
X-0.1852 Y0.058
X-0.1874 Y0.053
X-0.1895 Y0.0473
X-0.1912 Y0.0415
X-0.1924 Y0.036
X-0.1929 Y0.0328
X-0.1932 Y0.0288
X-0.1935 Y0.0194
X-0.1932 Y0.0098
X-0.1929 Y0.0056
X-0.1925 Y0.0022
X-0.1916 Y-0.0025
X-0.1905 Y-0.0077
X-0.1894 Y-0.0121
X-0.189 Y-0.0135
X-0.1887 Y-0.0143
X-0.1884
X-0.1878 Y-0.014
X-0.1859 Y-0.0129
X-0.183 Y-0.0112
X-0.1802 Y-0.0099
X-0.1773 Y-0.0091
X-0.1746 Y-0.0087
X-0.1721
X-0.1697 Y-0.0091
X-0.1675 Y-0.01
X-0.1656 Y-0.0114
X-0.1636 Y-0.0132
X-0.163 Y-0.0104
X-0.1624 Y-0.0084
X-0.1617 Y-0.0067
X-0.161 Y-0.0057
X-0.1604 Y-0.0055
X-0.1599 Y-0.006
X-0.1592 Y-0.0073
X-0.1581 Y-0.0093
X-0.157 Y-0.0116
X-0.1555 Y-0.0145
X-0.1542 Y-0.017
X-0.1518 Y-0.0211
X-0.1492 Y-0.0248
X-0.1459 Y-0.029
X-0.1413 Y-0.0352
X-0.1381 Y-0.0413
X-0.1363 Y-0.0475
X-0.1356 Y-0.0538
X-0.1358 Y-0.0577
X-0.1365 Y-0.0607
X-0.1379 Y-0.0633
X-0.14 Y-0.0657
X-0.1427 Y-0.0679
X-0.1458 Y-0.0692
X-0.1497 Y-0.0699
X-0.1521 Y-0.0701
X-0.1549 Y-0.0702
X-0.1618
X-0.1656 Y-0.0737
X-0.1688 Y-0.0764
X-0.172 Y-0.0787
X-0.1753 Y-0.0804
X-0.1785 Y-0.0816
X-0.1813 Y-0.0822
X-0.1844 Y-0.0824
X-0.1875 Y-0.0823
X-0.1899 Y-0.0819
X-0.1908 Y-0.0817
X-0.191 Y-0.082
X-0.1902 Y-0.083
X-0.1894 Y-0.0839
X-0.1883 Y-0.0851
X-0.1818 Y-0.0926
X-0.1754 Y-0.1013
X-0.1693 Y-0.1109
X-0.1634 Y-0.1213
X-0.1581 Y-0.1322
X-0.1532 Y-0.1433
X-0.1491 Y-0.1545
X-0.1458 Y-0.1655
X-0.1441 Y-0.1724
X-0.1429 Y-0.1789
X-0.1423 Y-0.1851
X-0.142 Y-0.1913
Y-0.1989
X-0.1398 Y-0.1925
X-0.139 Y-0.19
X-0.1382 Y-0.1879
X-0.1377 Y-0.1865
X-0.1374 Y-0.1859
X-0.137 Y-0.1863
X-0.1361 Y-0.1878
X-0.135 Y-0.1901
X-0.1336 Y-0.1929
X-0.1307 Y-0.1993
X-0.1294 Y-0.2023
X-0.1284 Y-0.2049
X-0.1257 Y-0.2129
X-0.1239 Y-0.221
X-0.1226 Y-0.2299
X-0.1222 Y-0.2349
X-0.1219 Y-0.2404
X-0.1217 Y-0.2442
X-0.1215 Y-0.2474
X-0.1213 Y-0.2496
X-0.1212 Y-0.2504
X-0.1209 Y-0.2498
X-0.1203 Y-0.2479
X-0.1193 Y-0.2452
X-0.1182 Y-0.2418
X-0.1171 Y-0.2384
X-0.1161 Y-0.2356
X-0.1153 Y-0.2337
X-0.1148 Y-0.2331
X-0.1144 Y-0.2335
X-0.1138 Y-0.2344
X-0.1122 Y-0.2372
X-0.1105 Y-0.2407
X-0.1093 Y-0.2439
X-0.1084 Y-0.2472
X-0.1082 Y-0.2506
X-0.1084 Y-0.2538
X-0.1092 Y-0.2566
X-0.1111 Y-0.2597
X-0.1139 Y-0.2624
X-0.1176 Y-0.2648
X-0.1221 Y-0.2668
X-0.1272 Y-0.2684
X-0.1329 Y-0.2696
X-0.1393 Y-0.2703
X-0.146 Y-0.2706
X-0.1524 Y-0.2702
X-0.159 Y-0.2692
X-0.1657 Y-0.2675
X-0.1725 Y-0.2651
X-0.1794 Y-0.2621
X-0.1863 Y-0.2585
X-0.1932 Y-0.2543
X-0.1999 Y-0.2495
X-0.2026 Y-0.2474
X-0.2055 Y-0.2449
X-0.2117 Y-0.239
X-0.2179 Y-0.2328
X-0.2206 Y-0.2298
X-0.223 Y-0.227
X-0.2281 Y-0.2204
X-0.2329 Y-0.2134
X-0.2373 Y-0.2062
X-0.2413 Y-0.1987
X-0.2449 Y-0.1909
X-0.2482 Y-0.1828
X-0.2511 Y-0.1745
X-0.2536 Y-0.1659
X-0.2558 Y-0.157
X-0.2575 Y-0.148
X-0.2589 Y-0.1387
X-0.2599 Y-0.1292
X-0.2605 Y-0.1195
X-0.2606 Y-0.1097
X-0.2604 Y-0.0997
X-0.2598 Y-0.0895
X-0.2595 Y-0.086
X-0.2593 Y-0.0834
X-0.259 Y-0.0816
X-0.2587 Y-0.0804
X-0.2575 Y-0.0793
X-0.2551 Y-0.0786
X-0.2469 Y-0.0759
X-0.2385 Y-0.0718
X-0.2301 Y-0.0661
X-0.2216 Y-0.059
X-0.2196 Y-0.0571
X-0.2186 Y-0.0559
X-0.2183 Y-0.055
X-0.2184 Y-0.0539
X-0.219 Y-0.0521
X-0.2202 Y-0.0499
X-0.2239 Y-0.0446
X-0.2284 Y-0.0394
X-0.2307 Y-0.0372
X-0.2328 Y-0.0356
X-0.2352 Y-0.0342
X-0.2373 Y-0.0336
X-0.2394 Y-0.0337
X-0.2422 Y-0.0346
X-0.2449 Y-0.0354
X-0.2471
X-0.2487 Y-0.0347
X-0.2497 Y-0.0332
X-0.2501 Y-0.0313
X-0.25 Y-0.0302
X-0.2497 Y-0.0286
X-0.2487 Y-0.0256
X-0.2479 Y-0.0239
X-0.2468 Y-0.0217
X-0.2453 Y-0.0189
X-0.2432 Y-0.0153
X-0.2404 Y-0.0107
X-0.2369 Y-0.0048
X-0.2321 Y0.0032
X-0.2281 Y0.0101
X-0.2248 Y0.0163
X-0.222 Y0.0218
X-0.2197 Y0.0268
X-0.2178 Y0.0314
X-0.215 Y0.0402
X-0.214 Y0.0455
X-0.2138 Y0.0485
X-0.2137 Y0.0527
X-0.2138 Y0.0558
X-0.2139 Y0.0584
X-0.2145 Y0.0626
X-0.2158 Y0.0664
X-0.218 Y0.0703
X-0.2199 Y0.0734
X-0.2168 Y0.0765
X-0.2131 Y0.08
X-0.2087 Y0.0837
X-0.2043 Y0.087
X-0.2024 Y0.0884
X-0.2008 Y0.0894
X-0.1964 Y0.0915
G0 X-0.1752 Y-0.0168
G1 X-0.1773 Y-0.0173 F15
X-0.1789 Y-0.0177
X-0.1814 Y-0.0186
X-0.1832 Y-0.0196
X-0.1851 Y-0.0213
X-0.1864 Y-0.0224
X-0.1874 Y-0.0231
X-0.1893 Y-0.0236
X-0.1906 Y-0.0237
X-0.1911 Y-0.0238
X-0.1908 Y-0.0243
X-0.1901 Y-0.0255
X-0.189 Y-0.0271
X-0.1877 Y-0.0291
X-0.185 Y-0.0333
X-0.1827 Y-0.0374
X-0.1788 Y-0.0461
X-0.1772 Y-0.0501
X-0.1756 Y-0.0532
X-0.1736 Y-0.0559
X-0.1711 Y-0.0586
X-0.1666 Y-0.0624
X-0.1619 Y-0.065
X-0.1574 Y-0.0664
X-0.1531 Y-0.0666
X-0.1503 Y-0.0659
X-0.1478 Y-0.0649
X-0.1455 Y-0.0635
X-0.1436 Y-0.0617
X-0.142 Y-0.0596
X-0.1408 Y-0.0571
X-0.14 Y-0.0544
X-0.1396 Y-0.0514
X-0.1397 Y-0.0475
X-0.1405 Y-0.044
X-0.1414 Y-0.0421
X-0.1427 Y-0.0398
X-0.1443 Y-0.0372
X-0.1464 Y-0.0339
X-0.1488 Y-0.0303
X-0.1508 Y-0.0273
X-0.1526 Y-0.0248
X-0.1542 Y-0.0227
X-0.1569 Y-0.0197
X-0.1594 Y-0.0178
X-0.1609 Y-0.0169
X-0.1623 Y-0.0164
X-0.164 Y-0.0161
X-0.1663 Y-0.0159
X-0.1706 Y-0.0161
X-0.1752 Y-0.0168
G0 X-0.1936 Y-0.027
G1 X-0.1978 Y-0.023 F15
X-0.2026 Y-0.0196
X-0.2077 Y-0.0167
X-0.213 Y-0.0146
X-0.2182 Y-0.0132
X-0.2231 Y-0.0127
X-0.2277 Y-0.0132
X-0.2301 Y-0.014
X-0.2324 Y-0.0152
X-0.2365 Y-0.0187
X-0.2398 Y-0.0233
X-0.242 Y-0.0289
X-0.2425 Y-0.0307
X-0.2393
X-0.2365 Y-0.0309
X-0.2336 Y-0.0318
X-0.2309 Y-0.0333
X-0.2282 Y-0.0353
X-0.2269 Y-0.0366
X-0.2251 Y-0.0387
X-0.2208 Y-0.0444
X-0.2174 Y-0.0489
X-0.2141 Y-0.0532
X-0.212 Y-0.0557
X-0.2094 Y-0.0589
X-0.206 Y-0.0628
X-0.2018 Y-0.0678
X-0.1998 Y-0.0702
X-0.1981 Y-0.0721
X-0.1968 Y-0.0735
X-0.1957 Y-0.0747
X-0.1937 Y-0.0762
X-0.1917 Y-0.0773
X-0.1892 Y-0.0783
X-0.1867 Y-0.0789
X-0.1841 Y-0.0791
X-0.1816 Y-0.0789
X-0.1766 Y-0.0772
X-0.1743 Y-0.0758
X-0.1721 Y-0.0741
X-0.1708 Y-0.0729
X-0.1699 Y-0.0719
X-0.1691 Y-0.0704
X-0.1696 Y-0.069
X-0.1714 Y-0.0669
X-0.1738 Y-0.0637
X-0.1764 Y-0.0594
X-0.1792 Y-0.054
X-0.182 Y-0.0475
X-0.1842 Y-0.0424
X-0.1862 Y-0.0381
X-0.1882 Y-0.0344
X-0.19 Y-0.0314
X-0.1936 Y-0.027
G0 X-0.334 Y0.0636
G1 X-0.332 Y0.0672 F15
X-0.3307 Y0.0716
X-0.3303 Y0.0748
X-0.3306 Y0.0776
X-0.3317 Y0.0801
X-0.3335 Y0.0823
X-0.3364 Y0.0845
X-0.34 Y0.0856
X-0.344 Y0.0857
X-0.3483 Y0.0848
X-0.3509 Y0.0837
X-0.3529 Y0.0823
X-0.3545 Y0.0803
X-0.356 Y0.0776
X-0.3569 Y0.0751
X-0.3572 Y0.0727
X-0.3571 Y0.0703
X-0.3564 Y0.068
X-0.3553 Y0.0659
X-0.3536 Y0.0639
X-0.3515 Y0.0621
X-0.349 Y0.0606
X-0.3465 Y0.0595
X-0.3444 Y0.0589
X-0.3422
X-0.3399 Y0.0594
X-0.3367 Y0.061
X-0.334 Y0.0636
G0 X-0.3497 Y0.0799
G1 X-0.3476 Y0.081 F15
X-0.3453 Y0.0818
X-0.3427 Y0.0821
X-0.3401 Y0.082
X-0.338 Y0.0814
X-0.3357 Y0.0795
X-0.3344 Y0.077
X-0.3343 Y0.0743
X-0.3355 Y0.0719
X-0.3367 Y0.0705
X-0.3376 Y0.073
X-0.3388 Y0.0751
X-0.3404 Y0.0767
X-0.3427 Y0.0779
X-0.3458 Y0.0789
X-0.3497 Y0.0799
M5
M30
